(/Applications/pcbgcode.repo/pcb-gcode.ulp)
(Copyright 2005 - 2012 by John Johnson)
(See readme.txt for licensing terms.)
(This file generated from the board:)
(.../TH_simple_AD-R-/eagle/th_simple_ad.brd)
(Current profile is .../pcbgcode.repo/profiles/mach.pp  )
(This file generated 1/1/16 1:43 PM)
(Settings from pcb-machine.h)
(spindle on time = 0.0000)
(  Tool Size)
(0.0100  )
(spindle speed = 30000.0000)
(tool change at 0.0000  0.0000  3.0000  )
(feed rate xy = F20    )
(feed rate z  = F10    )
(Z Axis Settings)
(  High     Up        Down     Drill)
(1.0000  	0.0500  	-0.0040 	-0.0730 )
(Settings from pcb-defaults.h)
(isolate min = 0.0010)
(isolate max = 0.0150)
(isolate step = 0.0015)
(Generated bottom outlines, bottom drill, )
(Unit of measure: inch)
(Inch Mode)
G20
(Absolute Coordinates)
G90
S30000
G00 Z1.0000  
G00 X0.0000  Y0.0000  
M03
G04 P0.000000
G00 Z0.0500  
G00 X-0.0816 Y0.1871  
G01 Z-0.0040 F10    
G01 X-0.0833 Y0.1856  F20    
G01 X-0.0849 Y0.1840  
G01 X-0.0855 Y0.1837  
G01 X-0.0859 Y0.1832  
G01 X-0.0880 Y0.1822  
G01 X-0.0899 Y0.1811  
G01 X-0.0905 Y0.1809  
G01 X-0.2895 Y0.0806  
G01 X-0.2915 Y0.0795  
G01 X-0.2921 Y0.0793  
G01 X-0.2927 Y0.0791  
G01 X-0.2949 Y0.0786  
G01 X-0.2971 Y0.0780  
G01 X-0.2977 Y0.0780  
G01 X-0.2984 Y0.0779  
G01 X-0.3006 Y0.0780  
G01 X-0.9730 Y0.0780  
G01 X-0.9739 Y0.0778  
G01 X-0.9759 Y0.0780  
G01 X-0.9779 Y0.0780  
G01 X-0.9788 Y0.0782  
G01 X-0.9797 Y0.0783  
G01 X-0.9816 Y0.0790  
G01 X-0.9835 Y0.0795  
G01 X-0.9843 Y0.0800  
G01 X-0.9852 Y0.0803  
G01 X-0.9868 Y0.0814  
G01 X-0.9885 Y0.0824  
G01 X-0.9892 Y0.0831  
G01 X-0.9899 Y0.0836  
G01 X-0.9912 Y0.0851  
G01 X-0.9926 Y0.0865  
G01 X-0.9931 Y0.0873  
G01 X-1.5412 Y0.7351  
G01 X-1.5426 Y0.7365  
G01 X-1.5431 Y0.7373  
G01 X-1.5437 Y0.7380  
G01 X-1.5445 Y0.7398  
G01 X-1.5455 Y0.7415  
G01 X-1.5457 Y0.7424  
G01 X-1.5461 Y0.7432  
G01 X-1.5465 Y0.7452  
G01 X-1.5470 Y0.7471  
G01 X-1.5470 Y0.7480  
G01 X-1.5472 Y0.7489  
G01 X-1.5470 Y0.7509  
G01 X-1.5470 Y2.3279  
G01 X-1.5455 Y2.3335  
G01 X-1.5426 Y2.3385  
G01 X-1.5385 Y2.3426  
G01 X-1.5335 Y2.3455  
G01 X-1.5279 Y2.3470  
G01 X-1.3470 Y2.3470  
G01 X-1.3470 Y2.5948  
G01 X-1.4031 Y2.7070  
G01 X-1.4178 Y2.7070  
G01 X-1.4430 Y2.7322  
G01 X-1.4430 Y2.7678  
G01 X-1.4220 Y2.7888  
G01 X-1.4220 Y2.8112  
G01 X-1.4430 Y2.8322  
G01 X-1.4430 Y2.8678  
G01 X-1.4178 Y2.8930  
G01 X-1.3822 Y2.8930  
G01 X-1.3570 Y2.8678  
G01 X-1.3570 Y2.8560  
G01 X-1.3430 Y2.8560  
G01 X-1.3430 Y2.8678  
G01 X-1.3178 Y2.8930  
G01 X-1.2822 Y2.8930  
G01 X-1.2612 Y2.8720  
G01 X-1.2388 Y2.8720  
G01 X-1.2178 Y2.8930  
G01 X-1.1822 Y2.8930  
G01 X-1.1570 Y2.8678  
G01 X-1.1570 Y2.8322  
G01 X-1.1780 Y2.8112  
G01 X-1.1780 Y2.7888  
G01 X-1.1570 Y2.7678  
G01 X-1.1570 Y2.7322  
G01 X-1.1822 Y2.7070  
G01 X-1.2178 Y2.7070  
G01 X-1.2430 Y2.7322  
G01 X-1.2430 Y2.7440  
G01 X-1.2570 Y2.7440  
G01 X-1.2570 Y2.7322  
G01 X-1.2822 Y2.7070  
G01 X-1.3178 Y2.7070  
G01 X-1.3388 Y2.7280  
G01 X-1.3612 Y2.7280  
G01 X-1.3633 Y2.7259  
G01 X-1.3056 Y2.6104  
G01 X-1.3045 Y2.6085  
G01 X-1.3043 Y2.6078  
G01 X-1.3040 Y2.6072  
G01 X-1.3036 Y2.6051  
G01 X-1.3030 Y2.6029  
G01 X-1.3030 Y2.6022  
G01 X-1.3029 Y2.6016  
G01 X-1.3030 Y2.5993  
G01 X-1.3030 Y2.3470  
G01 X-0.7510 Y2.3470  
G01 X-0.7491 Y2.3472  
G01 X-0.7481 Y2.3470  
G01 X-0.7471 Y2.3470  
G01 X-0.7453 Y2.3465  
G01 X-0.7434 Y2.3462  
G01 X-0.7425 Y2.3458  
G01 X-0.7415 Y2.3455  
G01 X-0.7399 Y2.3446  
G01 X-0.7381 Y2.3438  
G01 X-0.7374 Y2.3431  
G01 X-0.7365 Y2.3426  
G01 X-0.7351 Y2.3413  
G01 X-0.7337 Y2.3400  
G01 X-0.7331 Y2.3392  
G01 X-0.7324 Y2.3385  
G01 X-0.7314 Y2.3369  
G01 X-0.7304 Y2.3353  
G01 X-0.7300 Y2.3344  
G01 X-0.7295 Y2.3335  
G01 X-0.7290 Y2.3317  
G01 X-0.7284 Y2.3299  
G01 X-0.7283 Y2.3289  
G01 X-0.7280 Y2.3279  
G01 X-0.7280 Y2.3260  
G01 X-0.7035 Y2.0561  
G01 X-0.5932 Y1.8357  
G01 X-0.1526 Y2.2324  
G01 X-0.1530 Y2.2337  
G01 X-0.1544 Y2.2424  
G01 X-0.1544 Y2.3513  
G01 X-0.1530 Y2.3600  
G01 X-0.1503 Y2.3683  
G01 X-0.1463 Y2.3762  
G01 X-0.1411 Y2.3833  
G01 X-0.1349 Y2.3896  
G01 X-0.1278 Y2.3947  
G01 X-0.1204 Y2.3985  
G01 X-0.1204 Y2.6952  
G01 X-0.1278 Y2.6990  
G01 X-0.1349 Y2.7041  
G01 X-0.1411 Y2.7104  
G01 X-0.1463 Y2.7175  
G01 X-0.1503 Y2.7254  
G01 X-0.1530 Y2.7337  
G01 X-0.1544 Y2.7424  
G01 X-0.1544 Y2.8513  
G01 X-0.1530 Y2.8600  
G01 X-0.1503 Y2.8683  
G01 X-0.1463 Y2.8762  
G01 X-0.1411 Y2.8833  
G01 X-0.1349 Y2.8896  
G01 X-0.1278 Y2.8947  
G01 X-0.1199 Y2.8987  
G01 X-0.1115 Y2.9015  
G01 X-0.1028 Y2.9029  
G01 X-0.0940 Y2.9029  
G01 X-0.0853 Y2.9015  
G01 X-0.0769 Y2.8987  
G01 X-0.0691 Y2.8947  
G01 X-0.0619 Y2.8896  
G01 X-0.0557 Y2.8833  
G01 X-0.0505 Y2.8762  
G01 X-0.0465 Y2.8683  
G01 X-0.0438 Y2.8600  
G01 X-0.0424 Y2.8513  
G01 X-0.0424 Y2.7424  
G01 X-0.0438 Y2.7337  
G01 X-0.0465 Y2.7254  
G01 X-0.0505 Y2.7175  
G01 X-0.0557 Y2.7104  
G01 X-0.0619 Y2.7041  
G01 X-0.0691 Y2.6990  
G01 X-0.0764 Y2.6952  
G01 X-0.0764 Y2.3985  
G01 X-0.0691 Y2.3947  
G01 X-0.0619 Y2.3896  
G01 X-0.0557 Y2.3833  
G01 X-0.0505 Y2.3762  
G01 X-0.0465 Y2.3683  
G01 X-0.0438 Y2.3600  
G01 X-0.0424 Y2.3513  
G01 X-0.0424 Y2.2424  
G01 X-0.0438 Y2.2337  
G01 X-0.0465 Y2.2254  
G01 X-0.0505 Y2.2175  
G01 X-0.0557 Y2.2104  
G01 X-0.0619 Y2.2041  
G01 X-0.0691 Y2.1990  
G01 X-0.0769 Y2.1950  
G01 X-0.0853 Y2.1922  
G01 X-0.0940 Y2.1909  
G01 X-0.1028 Y2.1909  
G01 X-0.1115 Y2.1922  
G01 X-0.1199 Y2.1950  
G01 X-0.1254 Y2.1977  
G01 X-0.5680 Y1.7992  
G01 X-0.5574 Y1.7885  
G01 X-0.5545 Y1.7835  
G01 X-0.5530 Y1.7779  
G01 X-0.5530 Y1.7060  
G01 X-0.5375 Y1.6905  
G01 X-0.5375 Y1.6595  
G01 X-0.5530 Y1.6440  
G01 X-0.5530 Y1.3841  
G01 X-0.4115 Y1.2426  
G01 X-0.4074 Y1.2385  
G01 X-0.4045 Y1.2335  
G01 X-0.4030 Y1.2279  
G01 X-0.4030 Y1.0733  
G01 X-0.3930 Y1.0633  
G01 X-0.3930 Y1.0367  
G01 X-0.4117 Y1.0180  
G01 X-0.4185 Y1.0180  
G01 X-0.4680 Y0.9356  
G01 X-0.4680 Y0.9117  
G01 X-0.4867 Y0.8930  
G01 X-0.5133 Y0.8930  
G01 X-0.5320 Y0.9117  
G01 X-0.5320 Y0.9383  
G01 X-0.5133 Y0.9570  
G01 X-0.5065 Y0.9570  
G01 X-0.4570 Y1.0394  
G01 X-0.4570 Y1.0633  
G01 X-0.4470 Y1.0733  
G01 X-0.4470 Y1.2159  
G01 X-0.5926 Y1.3615  
G01 X-0.5955 Y1.3665  
G01 X-0.5970 Y1.3721  
G01 X-0.5970 Y1.6440  
G01 X-0.6125 Y1.6595  
G01 X-0.6125 Y1.6905  
G01 X-0.5970 Y1.7060  
G01 X-0.5970 Y1.7659  
G01 X-0.5991 Y1.7680  
G01 X-0.6117 Y1.7680  
G01 X-0.7640 Y1.6809  
G01 X-0.7665 Y1.6795  
G01 X-0.7694 Y1.6787  
G01 X-0.7721 Y1.6780  
G01 X-0.7750 Y1.6780  
G01 X-1.0030 Y1.6780  
G01 X-1.0030 Y1.3572  
G01 X-1.0001 Y1.3553  
G01 X-0.9947 Y1.3499  
G01 X-0.9904 Y1.3435  
G01 X-0.9875 Y1.3364  
G01 X-0.9860 Y1.3288  
G01 X-0.9860 Y1.3212  
G01 X-0.9875 Y1.3136  
G01 X-0.9904 Y1.3065  
G01 X-0.9947 Y1.3001  
G01 X-1.0001 Y1.2947  
G01 X-1.0065 Y1.2904  
G01 X-1.0136 Y1.2875  
G01 X-1.0212 Y1.2860  
G01 X-1.0288 Y1.2860  
G01 X-1.0364 Y1.2875  
G01 X-1.0435 Y1.2904  
G01 X-1.0499 Y1.2947  
G01 X-1.0553 Y1.3001  
G01 X-1.0596 Y1.3065  
G01 X-1.0604 Y1.3086  
G01 X-1.1553 Y1.3244  
G01 X-1.1617 Y1.3180  
G01 X-1.1883 Y1.3180  
G01 X-1.2070 Y1.3367  
G01 X-1.2070 Y1.3633  
G01 X-1.1927 Y1.3775  
G01 X-1.1789 Y1.4602  
G01 X-1.1808 Y1.4647  
G01 X-1.1820 Y1.4708  
G01 X-1.1820 Y1.5292  
G01 X-1.1808 Y1.5353  
G01 X-1.1784 Y1.5412  
G01 X-1.1749 Y1.5464  
G01 X-1.1704 Y1.5509  
G01 X-1.1652 Y1.5544  
G01 X-1.1593 Y1.5568  
G01 X-1.1532 Y1.5580  
G01 X-1.1468 Y1.5580  
G01 X-1.1407 Y1.5568  
G01 X-1.1348 Y1.5544  
G01 X-1.1296 Y1.5509  
G01 X-1.1251 Y1.5464  
G01 X-1.1216 Y1.5412  
G01 X-1.1192 Y1.5353  
G01 X-1.1180 Y1.5292  
G01 X-1.1180 Y1.4708  
G01 X-1.1192 Y1.4647  
G01 X-1.1216 Y1.4588  
G01 X-1.1251 Y1.4536  
G01 X-1.1296 Y1.4491  
G01 X-1.1348 Y1.4456  
G01 X-1.1369 Y1.4448  
G01 X-1.1494 Y1.3697  
G01 X-1.1475 Y1.3677  
G01 X-1.0532 Y1.3520  
G01 X-1.0499 Y1.3553  
G01 X-1.0470 Y1.3572  
G01 X-1.0470 Y1.9029  
G01 X-1.0455 Y1.9085  
G01 X-1.0426 Y1.9135  
G01 X-1.0385 Y1.9176  
G01 X-0.9875 Y1.9686  
G01 X-0.9875 Y1.9905  
G01 X-0.9662 Y2.0119  
G01 X-0.9506 Y2.1053  
G01 X-0.9570 Y2.1117  
G01 X-0.9570 Y2.1383  
G01 X-0.9383 Y2.1570  
G01 X-0.9117 Y2.1570  
G01 X-0.8930 Y2.1383  
G01 X-0.8930 Y2.1117  
G01 X-0.9073 Y2.0975  
G01 X-0.9233 Y2.0013  
G01 X-0.9125 Y1.9905  
G01 X-0.9125 Y1.9595  
G01 X-0.9345 Y1.9375  
G01 X-0.9564 Y1.9375  
G01 X-1.0030 Y1.8909  
G01 X-1.0030 Y1.7220  
G01 X-0.7808 Y1.7220  
G01 X-0.6320 Y1.8071  
G01 X-0.6320 Y1.8133  
G01 X-0.6315 Y1.8138  
G01 X-0.7439 Y2.0387  
G01 X-0.7446 Y2.0397  
G01 X-0.7452 Y2.0413  
G01 X-0.7460 Y2.0428  
G01 X-0.7462 Y2.0440  
G01 X-0.7466 Y2.0451  
G01 X-0.7468 Y2.0468  
G01 X-0.7471 Y2.0484  
G01 X-0.7471 Y2.0497  
G01 X-0.7701 Y2.3030  
G01 X-1.5030 Y2.3030  
G01 X-1.5030 Y2.0220  
G01 X-1.4804 Y2.0220  
G01 X-1.4791 Y2.0239  
G01 X-1.4739 Y2.0291  
G01 X-1.4678 Y2.0332  
G01 X-1.4609 Y2.0361  
G01 X-1.4537 Y2.0375  
G01 X-1.4463 Y2.0375  
G01 X-1.4391 Y2.0361  
G01 X-1.4322 Y2.0332  
G01 X-1.4261 Y2.0291  
G01 X-1.4209 Y2.0239  
G01 X-1.4168 Y2.0178  
G01 X-1.4139 Y2.0109  
G01 X-1.4125 Y2.0037  
G01 X-1.4125 Y1.9963  
G01 X-1.4139 Y1.9891  
G01 X-1.4168 Y1.9822  
G01 X-1.4209 Y1.9761  
G01 X-1.4261 Y1.9709  
G01 X-1.4322 Y1.9668  
G01 X-1.4391 Y1.9639  
G01 X-1.4463 Y1.9625  
G01 X-1.4537 Y1.9625  
G01 X-1.4609 Y1.9639  
G01 X-1.4678 Y1.9668  
G01 X-1.4739 Y1.9709  
G01 X-1.4791 Y1.9761  
G01 X-1.4804 Y1.9780  
G01 X-1.5030 Y1.9780  
G01 X-1.5030 Y0.7581  
G01 X-0.9648 Y0.1220  
G01 X-0.3052 Y0.1220  
G01 X-0.1204 Y0.2151  
G01 X-0.1204 Y0.2952  
G01 X-0.1278 Y0.2990  
G01 X-0.1349 Y0.3041  
G01 X-0.1411 Y0.3104  
G01 X-0.1463 Y0.3175  
G01 X-0.1503 Y0.3254  
G01 X-0.1530 Y0.3337  
G01 X-0.1544 Y0.3424  
G01 X-0.1544 Y0.4513  
G01 X-0.1530 Y0.4600  
G01 X-0.1503 Y0.4683  
G01 X-0.1463 Y0.4762  
G01 X-0.1411 Y0.4833  
G01 X-0.1349 Y0.4896  
G01 X-0.1278 Y0.4947  
G01 X-0.1199 Y0.4987  
G01 X-0.1115 Y0.5015  
G01 X-0.1028 Y0.5029  
G01 X-0.0940 Y0.5029  
G01 X-0.0853 Y0.5015  
G01 X-0.0769 Y0.4987  
G01 X-0.0691 Y0.4947  
G01 X-0.0619 Y0.4896  
G01 X-0.0557 Y0.4833  
G01 X-0.0505 Y0.4762  
G01 X-0.0465 Y0.4683  
G01 X-0.0438 Y0.4600  
G01 X-0.0424 Y0.4513  
G01 X-0.0424 Y0.3424  
G01 X-0.0438 Y0.3337  
G01 X-0.0465 Y0.3254  
G01 X-0.0505 Y0.3175  
G01 X-0.0557 Y0.3104  
G01 X-0.0619 Y0.3041  
G01 X-0.0691 Y0.2990  
G01 X-0.0764 Y0.2952  
G01 X-0.0764 Y0.2038  
G01 X-0.0763 Y0.2032  
G01 X-0.0764 Y0.2010  
G01 X-0.0764 Y0.1987  
G01 X-0.0766 Y0.1981  
G01 X-0.0766 Y0.1974  
G01 X-0.0773 Y0.1953  
G01 X-0.0779 Y0.1931  
G01 X-0.0782 Y0.1925  
G01 X-0.0784 Y0.1919  
G01 X-0.0797 Y0.1900  
G01 X-0.0808 Y0.1881  
G01 X-0.0813 Y0.1876  
G01 X-0.0816 Y0.1871  
G00 Z0.0500  
G00 X-0.4255 Y0.1877  
G01 Z-0.0040 F10    
G01 X-0.4269 Y0.1790  F20    
G01 X-0.4296 Y0.1706  
G01 X-0.4336 Y0.1628  
G01 X-0.4388 Y0.1556  
G01 X-0.4450 Y0.1494  
G01 X-0.4521 Y0.1442  
G01 X-0.4600 Y0.1402  
G01 X-0.4684 Y0.1375  
G01 X-0.4771 Y0.1361  
G01 X-0.5859 Y0.1361  
G01 X-0.5946 Y0.1375  
G01 X-0.6030 Y0.1402  
G01 X-0.6108 Y0.1442  
G01 X-0.6180 Y0.1494  
G01 X-0.6242 Y0.1556  
G01 X-0.6294 Y0.1628  
G01 X-0.6334 Y0.1706  
G01 X-0.6361 Y0.1790  
G01 X-0.6375 Y0.1877  
G01 X-0.6375 Y0.1965  
G01 X-0.6361 Y0.2052  
G01 X-0.6334 Y0.2136  
G01 X-0.6294 Y0.2215  
G01 X-0.6242 Y0.2286  
G01 X-0.6180 Y0.2348  
G01 X-0.6108 Y0.2400  
G01 X-0.6030 Y0.2440  
G01 X-0.5946 Y0.2467  
G01 X-0.5859 Y0.2481  
G01 X-0.4771 Y0.2481  
G01 X-0.4684 Y0.2467  
G01 X-0.4600 Y0.2440  
G01 X-0.4521 Y0.2400  
G01 X-0.4450 Y0.2348  
G01 X-0.4388 Y0.2286  
G01 X-0.4336 Y0.2215  
G01 X-0.4296 Y0.2136  
G01 X-0.4269 Y0.2052  
G01 X-0.4255 Y0.1965  
G01 X-0.4255 Y0.1877  
G00 Z0.0500  
G00 X-0.5754 Y0.3104  
G01 Z-0.0040 F10    
G01 X-0.5816 Y0.3041  F20    
G01 X-0.5888 Y0.2990  
G01 X-0.5966 Y0.2950  
G01 X-0.6050 Y0.2922  
G01 X-0.6137 Y0.2909  
G01 X-0.6225 Y0.2909  
G01 X-0.6312 Y0.2922  
G01 X-0.6396 Y0.2950  
G01 X-0.6475 Y0.2990  
G01 X-0.6546 Y0.3041  
G01 X-0.6608 Y0.3104  
G01 X-0.6660 Y0.3175  
G01 X-0.6700 Y0.3254  
G01 X-0.6727 Y0.3337  
G01 X-0.6741 Y0.3424  
G01 X-0.6741 Y0.3695  
G01 X-0.7475 Y0.3573  
G01 X-0.7617 Y0.3430  
G01 X-0.7883 Y0.3430  
G01 X-0.8070 Y0.3617  
G01 X-0.8070 Y0.3883  
G01 X-0.7883 Y0.4070  
G01 X-0.7617 Y0.4070  
G01 X-0.7553 Y0.4006  
G01 X-0.6741 Y0.4141  
G01 X-0.6741 Y0.4513  
G01 X-0.6727 Y0.4600  
G01 X-0.6700 Y0.4683  
G01 X-0.6660 Y0.4762  
G01 X-0.6608 Y0.4833  
G01 X-0.6546 Y0.4896  
G01 X-0.6475 Y0.4947  
G01 X-0.6396 Y0.4987  
G01 X-0.6312 Y0.5015  
G01 X-0.6225 Y0.5029  
G01 X-0.6137 Y0.5029  
G01 X-0.6050 Y0.5015  
G01 X-0.5966 Y0.4987  
G01 X-0.5888 Y0.4947  
G01 X-0.5816 Y0.4896  
G01 X-0.4570 Y0.6452  
G01 X-0.4570 Y0.6633  
G01 X-0.4383 Y0.6820  
G01 X-0.4117 Y0.6820  
G01 X-0.3930 Y0.6633  
G01 X-0.3930 Y0.6367  
G01 X-0.4117 Y0.6180  
G01 X-0.4224 Y0.6180  
G01 X-0.5621 Y0.4434  
G01 X-0.5621 Y0.3424  
G01 X-0.5635 Y0.3337  
G01 X-0.5662 Y0.3254  
G01 X-0.5702 Y0.3175  
G01 X-0.5754 Y0.3104  
G00 Z0.0500  
G00 X-0.8365 Y0.4824  
G01 Z-0.0040 F10    
G01 X-0.8415 Y0.4795  F20    
G01 X-0.8471 Y0.4780  
G01 X-1.1529 Y0.4780  
G01 X-1.1585 Y0.4795  
G01 X-1.1635 Y0.4824  
G01 X-1.1676 Y0.4865  
G01 X-1.1926 Y0.5115  
G01 X-1.1955 Y0.5165  
G01 X-1.1970 Y0.5221  
G01 X-1.1970 Y0.5767  
G01 X-1.1999 Y0.5796  
G01 X-1.2034 Y0.5848  
G01 X-1.2058 Y0.5907  
G01 X-1.2070 Y0.5968  
G01 X-1.2070 Y0.6032  
G01 X-1.2058 Y0.6093  
G01 X-1.2034 Y0.6152  
G01 X-1.1999 Y0.6204  
G01 X-1.1954 Y0.6249  
G01 X-1.1902 Y0.6284  
G01 X-1.1843 Y0.6308  
G01 X-1.1782 Y0.6320  
G01 X-1.1718 Y0.6320  
G01 X-1.1657 Y0.6308  
G01 X-1.1598 Y0.6284  
G01 X-1.1546 Y0.6249  
G01 X-1.1501 Y0.6204  
G01 X-1.1466 Y0.6152  
G01 X-1.1442 Y0.6093  
G01 X-1.1430 Y0.6032  
G01 X-1.1430 Y0.5968  
G01 X-1.1442 Y0.5907  
G01 X-1.1466 Y0.5848  
G01 X-1.1501 Y0.5796  
G01 X-1.1530 Y0.5767  
G01 X-1.1530 Y0.5341  
G01 X-1.1409 Y0.5220  
G01 X-0.8591 Y0.5220  
G01 X-0.8176 Y0.5635  
G01 X-0.8155 Y0.5656  
G01 X-0.8135 Y0.5676  
G01 X-0.8110 Y0.5691  
G01 X-0.8085 Y0.5705  
G01 X-0.4610 Y0.7691  
G01 X-0.4585 Y0.7705  
G01 X-0.4556 Y0.7713  
G01 X-0.4529 Y0.7720  
G01 X-0.4500 Y0.7720  
G01 X-0.3777 Y0.7720  
G01 X-0.3775 Y0.7720  
G01 X-0.3748 Y0.7720  
G01 X-0.3721 Y0.7720  
G01 X-0.3719 Y0.7720  
G01 X-0.3717 Y0.7719  
G01 X-0.3691 Y0.7712  
G01 X-0.3665 Y0.7705  
G01 X-0.3663 Y0.7704  
G01 X-0.1969 Y0.7220  
G01 X-0.0841 Y0.7220  
G01 X-0.0720 Y0.7341  
G01 X-0.0720 Y1.1780  
G01 X-0.1046 Y1.1780  
G01 X-0.1081 Y1.1712  
G01 X-0.1126 Y1.1649  
G01 X-0.1181 Y1.1595  
G01 X-0.1243 Y1.1549  
G01 X-0.1312 Y1.1514  
G01 X-0.1385 Y1.1491  
G01 X-0.1461 Y1.1479  
G01 X-0.1539 Y1.1479  
G01 X-0.1615 Y1.1491  
G01 X-0.1688 Y1.1514  
G01 X-0.1757 Y1.1549  
G01 X-0.1819 Y1.1595  
G01 X-0.1874 Y1.1649  
G01 X-0.1919 Y1.1712  
G01 X-0.1954 Y1.1780  
G01 X-0.1978 Y1.1854  
G01 X-0.1990 Y1.1930  
G01 X-0.1990 Y1.2007  
G01 X-0.1978 Y1.2083  
G01 X-0.1954 Y1.2157  
G01 X-0.1919 Y1.2225  
G01 X-0.1874 Y1.2288  
G01 X-0.1819 Y1.2342  
G01 X-0.1757 Y1.2388  
G01 X-0.1688 Y1.2423  
G01 X-0.1615 Y1.2446  
G01 X-0.1539 Y1.2459  
G01 X-0.1461 Y1.2459  
G01 X-0.1385 Y1.2446  
G01 X-0.1312 Y1.2423  
G01 X-0.1243 Y1.2388  
G01 X-0.1181 Y1.2342  
G01 X-0.1126 Y1.2288  
G01 X-0.1081 Y1.2225  
G01 X-0.1078 Y1.2220  
G01 X-0.0720 Y1.2220  
G01 X-0.0720 Y1.8159  
G01 X-0.1168 Y1.8607  
G01 X-0.1181 Y1.8595  
G01 X-0.1243 Y1.8549  
G01 X-0.1312 Y1.8514  
G01 X-0.1385 Y1.8491  
G01 X-0.1461 Y1.8479  
G01 X-0.1539 Y1.8479  
G01 X-0.1615 Y1.8491  
G01 X-0.1688 Y1.8514  
G01 X-0.1757 Y1.8549  
G01 X-0.1804 Y1.8584  
G01 X-0.1909 Y1.8548  
G01 X-0.1915 Y1.8545  
G01 X-0.1927 Y1.8542  
G01 X-0.1938 Y1.8537  
G01 X-0.1948 Y1.8535  
G01 X-0.1958 Y1.8532  
G01 X-0.1965 Y1.8532  
G01 X-0.1970 Y1.8530  
G01 X-0.3096 Y1.7592  
G01 X-0.3104 Y1.7583  
G01 X-0.3118 Y1.7573  
G01 X-0.3131 Y1.7562  
G01 X-0.3142 Y1.7557  
G01 X-0.4375 Y1.6736  
G01 X-0.4375 Y1.6713  
G01 X-0.4389 Y1.6641  
G01 X-0.4418 Y1.6572  
G01 X-0.4459 Y1.6511  
G01 X-0.4511 Y1.6459  
G01 X-0.4572 Y1.6418  
G01 X-0.4641 Y1.6389  
G01 X-0.4713 Y1.6375  
G01 X-0.4787 Y1.6375  
G01 X-0.4859 Y1.6389  
G01 X-0.4928 Y1.6418  
G01 X-0.4989 Y1.6459  
G01 X-0.5041 Y1.6511  
G01 X-0.5082 Y1.6572  
G01 X-0.5111 Y1.6641  
G01 X-0.5125 Y1.6713  
G01 X-0.5125 Y1.6787  
G01 X-0.5111 Y1.6859  
G01 X-0.5082 Y1.6928  
G01 X-0.5041 Y1.6989  
G01 X-0.4989 Y1.7041  
G01 X-0.4928 Y1.7082  
G01 X-0.4859 Y1.7111  
G01 X-0.4787 Y1.7125  
G01 X-0.4713 Y1.7125  
G01 X-0.4641 Y1.7111  
G01 X-0.4619 Y1.7102  
G01 X-0.3382 Y1.7927  
G01 X-0.1972 Y1.9101  
G01 X-0.1954 Y1.9157  
G01 X-0.1919 Y1.9225  
G01 X-0.1874 Y1.9288  
G01 X-0.1819 Y1.9342  
G01 X-0.1757 Y1.9388  
G01 X-0.1688 Y1.9423  
G01 X-0.1615 Y1.9446  
G01 X-0.1539 Y1.9459  
G01 X-0.1461 Y1.9459  
G01 X-0.1385 Y1.9446  
G01 X-0.1312 Y1.9423  
G01 X-0.1243 Y1.9388  
G01 X-0.1181 Y1.9342  
G01 X-0.1126 Y1.9288  
G01 X-0.1081 Y1.9225  
G01 X-0.1046 Y1.9157  
G01 X-0.1022 Y1.9083  
G01 X-0.0365 Y1.8426  
G01 X-0.0324 Y1.8385  
G01 X-0.0295 Y1.8335  
G01 X-0.0280 Y1.8279  
G01 X-0.0280 Y0.7221  
G01 X-0.0295 Y0.7165  
G01 X-0.0324 Y0.7115  
G01 X-0.0615 Y0.6824  
G01 X-0.0665 Y0.6795  
G01 X-0.0721 Y0.6780  
G01 X-0.1973 Y0.6780  
G01 X-0.1975 Y0.6780  
G01 X-0.2002 Y0.6780  
G01 X-0.2029 Y0.6780  
G01 X-0.2031 Y0.6780  
G01 X-0.2033 Y0.6781  
G01 X-0.2059 Y0.6788  
G01 X-0.2085 Y0.6795  
G01 X-0.2087 Y0.6796  
G01 X-0.3781 Y0.7280  
G01 X-0.4442 Y0.7280  
G01 X-0.7865 Y0.5324  
G01 X-0.8365 Y0.4824  
G00 Z0.0500  
G00 X-0.9501 Y0.5796  
G01 Z-0.0040 F10    
G01 X-0.9546 Y0.5751  F20    
G01 X-0.9598 Y0.5716  
G01 X-0.9657 Y0.5692  
G01 X-0.9718 Y0.5680  
G01 X-0.9782 Y0.5680  
G01 X-0.9843 Y0.5692  
G01 X-0.9902 Y0.5716  
G01 X-0.9954 Y0.5751  
G01 X-0.9999 Y0.5796  
G01 X-1.0034 Y0.5848  
G01 X-1.0058 Y0.5907  
G01 X-1.0070 Y0.5968  
G01 X-1.0070 Y0.6032  
G01 X-1.0058 Y0.6093  
G01 X-1.0034 Y0.6152  
G01 X-0.9999 Y0.6204  
G01 X-0.9954 Y0.6249  
G01 X-0.9902 Y0.6284  
G01 X-0.9843 Y0.6308  
G01 X-0.9782 Y0.6320  
G01 X-0.9718 Y0.6320  
G01 X-0.9657 Y0.6308  
G01 X-0.9598 Y0.6284  
G01 X-0.9546 Y0.6249  
G01 X-0.9501 Y0.6204  
G01 X-0.9466 Y0.6152  
G01 X-0.9442 Y0.6093  
G01 X-0.9430 Y0.6032  
G01 X-0.9430 Y0.5968  
G01 X-0.9442 Y0.5907  
G01 X-0.9466 Y0.5848  
G01 X-0.9501 Y0.5796  
G00 Z0.0500  
G00 X-1.0501 Y0.5796  
G01 Z-0.0040 F10    
G01 X-1.0546 Y0.5751  F20    
G01 X-1.0598 Y0.5716  
G01 X-1.0657 Y0.5692  
G01 X-1.0718 Y0.5680  
G01 X-1.0782 Y0.5680  
G01 X-1.0843 Y0.5692  
G01 X-1.0902 Y0.5716  
G01 X-1.0954 Y0.5751  
G01 X-1.0999 Y0.5796  
G01 X-1.1034 Y0.5848  
G01 X-1.1058 Y0.5907  
G01 X-1.1070 Y0.5968  
G01 X-1.1070 Y0.6032  
G01 X-1.1058 Y0.6093  
G01 X-1.1034 Y0.6152  
G01 X-1.0999 Y0.6204  
G01 X-1.0970 Y0.6233  
G01 X-1.0970 Y0.6909  
G01 X-1.1926 Y0.7865  
G01 X-1.1955 Y0.7915  
G01 X-1.1970 Y0.7971  
G01 X-1.1970 Y0.8767  
G01 X-1.1999 Y0.8796  
G01 X-1.2034 Y0.8848  
G01 X-1.2058 Y0.8907  
G01 X-1.2070 Y0.8968  
G01 X-1.2070 Y0.9032  
G01 X-1.2058 Y0.9093  
G01 X-1.2034 Y0.9152  
G01 X-1.1999 Y0.9204  
G01 X-1.1954 Y0.9249  
G01 X-1.1902 Y0.9284  
G01 X-1.1843 Y0.9308  
G01 X-1.1782 Y0.9320  
G01 X-1.1718 Y0.9320  
G01 X-1.1657 Y0.9308  
G01 X-1.1598 Y0.9284  
G01 X-1.1546 Y0.9249  
G01 X-1.1501 Y0.9204  
G01 X-1.1466 Y0.9152  
G01 X-1.1442 Y0.9093  
G01 X-1.1430 Y0.9032  
G01 X-1.1430 Y0.8968  
G01 X-1.1442 Y0.8907  
G01 X-1.1466 Y0.8848  
G01 X-1.1501 Y0.8796  
G01 X-1.1530 Y0.8767  
G01 X-1.1530 Y0.8091  
G01 X-1.0750 Y0.7311  
G01 X-1.0385 Y0.7676  
G01 X-1.0335 Y0.7705  
G01 X-1.0279 Y0.7720  
G01 X-0.9341 Y0.7720  
G01 X-0.8951 Y0.8110  
G01 X-0.8535 Y0.9983  
G01 X-0.8553 Y1.0001  
G01 X-0.8596 Y1.0065  
G01 X-0.8625 Y1.0136  
G01 X-0.8640 Y1.0212  
G01 X-0.8640 Y1.0288  
G01 X-0.8625 Y1.0364  
G01 X-0.8596 Y1.0435  
G01 X-0.8553 Y1.0499  
G01 X-0.8499 Y1.0553  
G01 X-0.8435 Y1.0596  
G01 X-0.8364 Y1.0625  
G01 X-0.8288 Y1.0640  
G01 X-0.8212 Y1.0640  
G01 X-0.8136 Y1.0625  
G01 X-0.8065 Y1.0596  
G01 X-0.8001 Y1.0553  
G01 X-0.7947 Y1.0499  
G01 X-0.7904 Y1.0435  
G01 X-0.7875 Y1.0364  
G01 X-0.7860 Y1.0288  
G01 X-0.7860 Y1.0212  
G01 X-0.7875 Y1.0136  
G01 X-0.7904 Y1.0065  
G01 X-0.7947 Y1.0001  
G01 X-0.8001 Y0.9947  
G01 X-0.8065 Y0.9904  
G01 X-0.8105 Y0.9888  
G01 X-0.8489 Y0.8161  
G01 X-0.7931 Y0.8022  
G01 X-0.7883 Y0.8070  
G01 X-0.7617 Y0.8070  
G01 X-0.7430 Y0.7883  
G01 X-0.7430 Y0.7617  
G01 X-0.7617 Y0.7430  
G01 X-0.7883 Y0.7430  
G01 X-0.8051 Y0.7598  
G01 X-0.8683 Y0.7756  
G01 X-0.9074 Y0.7365  
G01 X-0.9115 Y0.7324  
G01 X-0.9165 Y0.7295  
G01 X-0.9221 Y0.7280  
G01 X-1.0159 Y0.7280  
G01 X-1.0530 Y0.6909  
G01 X-1.0530 Y0.6233  
G01 X-1.0501 Y0.6204  
G01 X-1.0466 Y0.6152  
G01 X-1.0442 Y0.6093  
G01 X-1.0430 Y0.6032  
G01 X-1.0430 Y0.5968  
G01 X-1.0442 Y0.5907  
G01 X-1.0466 Y0.5848  
G01 X-1.0501 Y0.5796  
G00 Z0.0500  
G00 X-1.2501 Y0.5796  
G01 Z-0.0040 F10    
G01 X-1.2546 Y0.5751  F20    
G01 X-1.2598 Y0.5716  
G01 X-1.2657 Y0.5692  
G01 X-1.2718 Y0.5680  
G01 X-1.2782 Y0.5680  
G01 X-1.2843 Y0.5692  
G01 X-1.2902 Y0.5716  
G01 X-1.2954 Y0.5751  
G01 X-1.2999 Y0.5796  
G01 X-1.3034 Y0.5848  
G01 X-1.3058 Y0.5907  
G01 X-1.3070 Y0.5968  
G01 X-1.3070 Y0.6032  
G01 X-1.3058 Y0.6093  
G01 X-1.3051 Y0.6110  
G01 X-1.4694 Y0.9396  
G01 X-1.4705 Y0.9415  
G01 X-1.4707 Y0.9422  
G01 X-1.4710 Y0.9428  
G01 X-1.4714 Y0.9449  
G01 X-1.4720 Y0.9471  
G01 X-1.4720 Y0.9478  
G01 X-1.4721 Y0.9484  
G01 X-1.4720 Y0.9507  
G01 X-1.4720 Y1.4491  
G01 X-1.4722 Y1.4511  
G01 X-1.4720 Y1.4520  
G01 X-1.4720 Y1.4529  
G01 X-1.4715 Y1.4548  
G01 X-1.3771 Y1.9740  
G01 X-1.3875 Y1.9845  
G01 X-1.3875 Y2.0155  
G01 X-1.3806 Y2.0224  
G01 X-1.4339 Y2.1834  
G01 X-1.4353 Y2.1837  
G01 X-1.4419 Y2.1858  
G01 X-1.4481 Y2.1889  
G01 X-1.4537 Y2.1930  
G01 X-1.4586 Y2.1979  
G01 X-1.4626 Y2.2035  
G01 X-1.4658 Y2.2097  
G01 X-1.4679 Y2.2163  
G01 X-1.4690 Y2.2231  
G01 X-1.4690 Y2.2300  
G01 X-1.4679 Y2.2369  
G01 X-1.4658 Y2.2435  
G01 X-1.4626 Y2.2496  
G01 X-1.4586 Y2.2552  
G01 X-1.4537 Y2.2601  
G01 X-1.4481 Y2.2642  
G01 X-1.4419 Y2.2674  
G01 X-1.4353 Y2.2695  
G01 X-1.4285 Y2.2706  
G01 X-1.4215 Y2.2706  
G01 X-1.4147 Y2.2695  
G01 X-1.4081 Y2.2674  
G01 X-1.4019 Y2.2642  
G01 X-1.3963 Y2.2601  
G01 X-1.3914 Y2.2552  
G01 X-1.3874 Y2.2496  
G01 X-1.3842 Y2.2435  
G01 X-1.3821 Y2.2369  
G01 X-1.3810 Y2.2300  
G01 X-1.3810 Y2.2231  
G01 X-1.3821 Y2.2163  
G01 X-1.3842 Y2.2097  
G01 X-1.3874 Y2.2035  
G01 X-1.3914 Y2.1979  
G01 X-1.3921 Y2.1972  
G01 X-1.3392 Y2.0375  
G01 X-1.3345 Y2.0375  
G01 X-1.3125 Y2.0155  
G01 X-1.3125 Y1.9845  
G01 X-1.3345 Y1.9625  
G01 X-1.4280 Y1.4480  
G01 X-1.4280 Y0.9552  
G01 X-1.2658 Y0.6308  
G01 X-1.2657 Y0.6308  
G01 X-1.2598 Y0.6284  
G01 X-1.2546 Y0.6249  
G01 X-1.2501 Y0.6204  
G01 X-1.2466 Y0.6152  
G01 X-1.2442 Y0.6093  
G01 X-1.2430 Y0.6032  
G01 X-1.2430 Y0.5968  
G01 X-1.2442 Y0.5907  
G01 X-1.2466 Y0.5848  
G01 X-1.2501 Y0.5796  
G00 Z0.0500  
G00 X-1.2501 Y0.8796  
G01 Z-0.0040 F10    
G01 X-1.2546 Y0.8751  F20    
G01 X-1.2598 Y0.8716  
G01 X-1.2657 Y0.8692  
G01 X-1.2718 Y0.8680  
G01 X-1.2782 Y0.8680  
G01 X-1.2843 Y0.8692  
G01 X-1.2902 Y0.8716  
G01 X-1.2954 Y0.8751  
G01 X-1.2999 Y0.8796  
G01 X-1.3034 Y0.8848  
G01 X-1.3058 Y0.8907  
G01 X-1.3070 Y0.8968  
G01 X-1.3070 Y0.9032  
G01 X-1.3058 Y0.9093  
G01 X-1.3034 Y0.9152  
G01 X-1.2999 Y0.9204  
G01 X-1.2954 Y0.9249  
G01 X-1.2902 Y0.9284  
G01 X-1.2843 Y0.9308  
G01 X-1.2782 Y0.9320  
G01 X-1.2718 Y0.9320  
G01 X-1.2657 Y0.9308  
G01 X-1.2598 Y0.9284  
G01 X-1.2546 Y0.9249  
G01 X-1.2501 Y0.9204  
G01 X-1.2466 Y0.9152  
G01 X-1.2442 Y0.9093  
G01 X-1.2430 Y0.9032  
G01 X-1.2430 Y0.8968  
G01 X-1.2442 Y0.8907  
G01 X-1.2466 Y0.8848  
G01 X-1.2501 Y0.8796  
G00 Z0.0500  
G00 X-1.0999 Y0.8796  
G01 Z-0.0040 F10    
G01 X-1.1034 Y0.8848  F20    
G01 X-1.1058 Y0.8907  
G01 X-1.1070 Y0.8968  
G01 X-1.1070 Y0.9032  
G01 X-1.1058 Y0.9093  
G01 X-1.1034 Y0.9152  
G01 X-1.0999 Y0.9204  
G01 X-1.0954 Y0.9249  
G01 X-1.0902 Y0.9284  
G01 X-1.0868 Y0.9298  
G01 X-1.0574 Y1.0033  
G01 X-1.0596 Y1.0065  
G01 X-1.0601 Y1.0078  
G01 X-1.3766 Y1.0530  
G01 X-1.3779 Y1.0530  
G01 X-1.3794 Y1.0534  
G01 X-1.3810 Y1.0536  
G01 X-1.3822 Y1.0542  
G01 X-1.3835 Y1.0545  
G01 X-1.3849 Y1.0553  
G01 X-1.3863 Y1.0559  
G01 X-1.3874 Y1.0567  
G01 X-1.3885 Y1.0574  
G01 X-1.3896 Y1.0585  
G01 X-1.3909 Y1.0595  
G01 X-1.3917 Y1.0605  
G01 X-1.3926 Y1.0615  
G01 X-1.3934 Y1.0629  
G01 X-1.3943 Y1.0641  
G01 X-1.3948 Y1.0654  
G01 X-1.3955 Y1.0665  
G01 X-1.3959 Y1.0680  
G01 X-1.3965 Y1.0695  
G01 X-1.3967 Y1.0708  
G01 X-1.3970 Y1.0721  
G01 X-1.3970 Y1.0737  
G01 X-1.3972 Y1.0752  
G01 X-1.3970 Y1.0766  
G01 X-1.3970 Y1.4224  
G01 X-1.3971 Y1.4226  
G01 X-1.3970 Y1.4253  
G01 X-1.3970 Y1.4279  
G01 X-1.3969 Y1.4282  
G01 X-1.3969 Y1.4284  
G01 X-1.3962 Y1.4310  
G01 X-1.3955 Y1.4335  
G01 X-1.3954 Y1.4337  
G01 X-1.2716 Y1.8546  
G01 X-1.2268 Y2.1917  
G01 X-1.2287 Y2.1930  
G01 X-1.2336 Y2.1979  
G01 X-1.2376 Y2.2035  
G01 X-1.2408 Y2.2097  
G01 X-1.2429 Y2.2163  
G01 X-1.2440 Y2.2231  
G01 X-1.2440 Y2.2300  
G01 X-1.2429 Y2.2369  
G01 X-1.2408 Y2.2435  
G01 X-1.2376 Y2.2496  
G01 X-1.2336 Y2.2552  
G01 X-1.2287 Y2.2601  
G01 X-1.2231 Y2.2642  
G01 X-1.2169 Y2.2674  
G01 X-1.2103 Y2.2695  
G01 X-1.2035 Y2.2706  
G01 X-1.1965 Y2.2706  
G01 X-1.1897 Y2.2695  
G01 X-1.1831 Y2.2674  
G01 X-1.1769 Y2.2642  
G01 X-1.1713 Y2.2601  
G01 X-1.1664 Y2.2552  
G01 X-1.1649 Y2.2531  
G01 X-1.0547 Y2.2715  
G01 X-1.0529 Y2.2720  
G01 X-1.0518 Y2.2720  
G01 X-1.0508 Y2.2722  
G01 X-1.0489 Y2.2720  
G01 X-0.8221 Y2.2720  
G01 X-0.8165 Y2.2705  
G01 X-0.8115 Y2.2676  
G01 X-0.8074 Y2.2635  
G01 X-0.8045 Y2.2585  
G01 X-0.8030 Y2.2529  
G01 X-0.8030 Y2.1007  
G01 X-0.8029 Y2.0985  
G01 X-0.8030 Y2.0978  
G01 X-0.8030 Y2.0971  
G01 X-0.8036 Y2.0950  
G01 X-0.8225 Y2.0005  
G01 X-0.8209 Y1.9989  
G01 X-0.8168 Y1.9928  
G01 X-0.8139 Y1.9859  
G01 X-0.8125 Y1.9787  
G01 X-0.8125 Y1.9713  
G01 X-0.8139 Y1.9641  
G01 X-0.8168 Y1.9572  
G01 X-0.8209 Y1.9511  
G01 X-0.8261 Y1.9459  
G01 X-0.8322 Y1.9418  
G01 X-0.8391 Y1.9389  
G01 X-0.8439 Y1.9380  
G01 X-0.8924 Y1.8409  
G01 X-0.8190 Y1.8262  
G01 X-0.8133 Y1.8320  
G01 X-0.7867 Y1.8320  
G01 X-0.7680 Y1.8133  
G01 X-0.7680 Y1.7867  
G01 X-0.7867 Y1.7680  
G01 X-0.8133 Y1.7680  
G01 X-0.8285 Y1.7833  
G01 X-0.9060 Y1.7988  
G01 X-0.9117 Y1.7930  
G01 X-0.9383 Y1.7930  
G01 X-0.9570 Y1.8117  
G01 X-0.9570 Y1.8383  
G01 X-0.9383 Y1.8570  
G01 X-0.9336 Y1.8570  
G01 X-0.8833 Y1.9575  
G01 X-0.8861 Y1.9641  
G01 X-0.8875 Y1.9713  
G01 X-0.8875 Y1.9787  
G01 X-0.8861 Y1.9859  
G01 X-0.8832 Y1.9928  
G01 X-0.8791 Y1.9989  
G01 X-0.8739 Y2.0041  
G01 X-0.8678 Y2.0082  
G01 X-0.8656 Y2.0091  
G01 X-0.8470 Y2.1022  
G01 X-0.8470 Y2.2280  
G01 X-1.0482 Y2.2280  
G01 X-1.1593 Y2.2095  
G01 X-1.1624 Y2.2035  
G01 X-1.1664 Y2.1979  
G01 X-1.1713 Y2.1930  
G01 X-1.1769 Y2.1889  
G01 X-1.1831 Y2.1858  
G01 X-1.1832 Y2.1858  
G01 X-1.2280 Y1.8483  
G01 X-1.2281 Y1.8466  
G01 X-1.2284 Y1.8454  
G01 X-1.2286 Y1.8442  
G01 X-1.2292 Y1.8427  
G01 X-1.3530 Y1.4218  
G01 X-1.3530 Y1.0941  
G01 X-1.0538 Y1.0513  
G01 X-1.0499 Y1.0553  
G01 X-1.0435 Y1.0596  
G01 X-1.0364 Y1.0625  
G01 X-1.0302 Y1.0637  
G01 X-0.9950 Y1.1342  
G01 X-0.9941 Y1.1363  
G01 X-0.9937 Y1.1368  
G01 X-0.9934 Y1.1374  
G01 X-0.9919 Y1.1391  
G01 X-0.9905 Y1.1409  
G01 X-0.9900 Y1.1413  
G01 X-0.9895 Y1.1418  
G01 X-0.9877 Y1.1430  
G01 X-0.8889 Y1.2171  
G01 X-0.8873 Y1.2184  
G01 X-0.8866 Y1.2188  
G01 X-0.8859 Y1.2193  
G01 X-0.8840 Y1.2201  
G01 X-0.8822 Y1.2210  
G01 X-0.8813 Y1.2212  
G01 X-0.8805 Y1.2215  
G01 X-0.8785 Y1.2217  
G01 X-0.7680 Y1.2438  
G01 X-0.7542 Y1.2990  
G01 X-0.7553 Y1.3001  
G01 X-0.7596 Y1.3065  
G01 X-0.7625 Y1.3136  
G01 X-0.7640 Y1.3212  
G01 X-0.7640 Y1.3288  
G01 X-0.7625 Y1.3364  
G01 X-0.7596 Y1.3435  
G01 X-0.7553 Y1.3499  
G01 X-0.7499 Y1.3553  
G01 X-0.7435 Y1.3596  
G01 X-0.7364 Y1.3625  
G01 X-0.7288 Y1.3640  
G01 X-0.7212 Y1.3640  
G01 X-0.7136 Y1.3625  
G01 X-0.7065 Y1.3596  
G01 X-0.7001 Y1.3553  
G01 X-0.6947 Y1.3499  
G01 X-0.6904 Y1.3435  
G01 X-0.6875 Y1.3364  
G01 X-0.6860 Y1.3288  
G01 X-0.6860 Y1.3212  
G01 X-0.6875 Y1.3136  
G01 X-0.6904 Y1.3065  
G01 X-0.6947 Y1.3001  
G01 X-0.7001 Y1.2947  
G01 X-0.7065 Y1.2904  
G01 X-0.7115 Y1.2884  
G01 X-0.7282 Y1.2216  
G01 X-0.7282 Y1.2207  
G01 X-0.7289 Y1.2188  
G01 X-0.7294 Y1.2169  
G01 X-0.7298 Y1.2161  
G01 X-0.7301 Y1.2152  
G01 X-0.7312 Y1.2135  
G01 X-0.7322 Y1.2118  
G01 X-0.7328 Y1.2111  
G01 X-0.7333 Y1.2104  
G01 X-0.7348 Y1.2091  
G01 X-0.7362 Y1.2076  
G01 X-0.7370 Y1.2072  
G01 X-0.7377 Y1.2066  
G01 X-0.7394 Y1.2057  
G01 X-0.7412 Y1.2046  
G01 X-0.7420 Y1.2044  
G01 X-0.7428 Y1.2040  
G01 X-0.7448 Y1.2036  
G01 X-0.7467 Y1.2031  
G01 X-0.7476 Y1.2030  
G01 X-0.8658 Y1.1794  
G01 X-0.9576 Y1.1105  
G01 X-0.9909 Y1.0441  
G01 X-0.9904 Y1.0435  
G01 X-0.9875 Y1.0364  
G01 X-0.9860 Y1.0288  
G01 X-0.9860 Y1.0212  
G01 X-0.9875 Y1.0136  
G01 X-0.9904 Y1.0065  
G01 X-0.9947 Y1.0001  
G01 X-1.0001 Y0.9947  
G01 X-1.0065 Y0.9904  
G01 X-1.0136 Y0.9875  
G01 X-1.0165 Y0.9869  
G01 X-1.0459 Y0.9134  
G01 X-1.0442 Y0.9093  
G01 X-1.0430 Y0.9032  
G01 X-1.0430 Y0.8968  
G01 X-1.0442 Y0.8907  
G01 X-1.0466 Y0.8848  
G01 X-1.0501 Y0.8796  
G01 X-1.0546 Y0.8751  
G01 X-1.0598 Y0.8716  
G01 X-1.0657 Y0.8692  
G01 X-1.0718 Y0.8680  
G01 X-1.0782 Y0.8680  
G01 X-1.0843 Y0.8692  
G01 X-1.0902 Y0.8716  
G01 X-1.0954 Y0.8751  
G01 X-1.0999 Y0.8796  
G00 Z0.0500  
G00 X-0.9999 Y0.8796  
G01 Z-0.0040 F10    
G01 X-1.0034 Y0.8848  F20    
G01 X-1.0058 Y0.8907  
G01 X-1.0070 Y0.8968  
G01 X-1.0070 Y0.9032  
G01 X-1.0058 Y0.9093  
G01 X-1.0034 Y0.9152  
G01 X-0.9999 Y0.9204  
G01 X-0.9954 Y0.9249  
G01 X-0.9902 Y0.9284  
G01 X-0.9843 Y0.9308  
G01 X-0.9782 Y0.9320  
G01 X-0.9718 Y0.9320  
G01 X-0.9657 Y0.9308  
G01 X-0.9598 Y0.9284  
G01 X-0.9546 Y0.9249  
G01 X-0.9501 Y0.9204  
G01 X-0.9466 Y0.9152  
G01 X-0.9442 Y0.9093  
G01 X-0.9430 Y0.9032  
G01 X-0.9430 Y0.8968  
G01 X-0.9442 Y0.8907  
G01 X-0.9466 Y0.8848  
G01 X-0.9501 Y0.8796  
G01 X-0.9546 Y0.8751  
G01 X-0.9598 Y0.8716  
G01 X-0.9657 Y0.8692  
G01 X-0.9718 Y0.8680  
G01 X-0.9782 Y0.8680  
G01 X-0.9843 Y0.8692  
G01 X-0.9902 Y0.8716  
G01 X-0.9954 Y0.8751  
G01 X-0.9999 Y0.8796  
G00 Z0.0500  
G00 X-0.9499 Y0.9947  
G01 Z-0.0040 F10    
G01 X-0.9553 Y1.0001  F20    
G01 X-0.9596 Y1.0065  
G01 X-0.9625 Y1.0136  
G01 X-0.9640 Y1.0212  
G01 X-0.9640 Y1.0288  
G01 X-0.9625 Y1.0364  
G01 X-0.9596 Y1.0435  
G01 X-0.9553 Y1.0499  
G01 X-0.9499 Y1.0553  
G01 X-0.9435 Y1.0596  
G01 X-0.9364 Y1.0625  
G01 X-0.9302 Y1.0637  
G01 X-0.8957 Y1.1328  
G01 X-0.8955 Y1.1335  
G01 X-0.8944 Y1.1354  
G01 X-0.8934 Y1.1374  
G01 X-0.8929 Y1.1379  
G01 X-0.8926 Y1.1385  
G01 X-0.8910 Y1.1401  
G01 X-0.8895 Y1.1418  
G01 X-0.8890 Y1.1421  
G01 X-0.8885 Y1.1426  
G01 X-0.8866 Y1.1437  
G01 X-0.8847 Y1.1450  
G01 X-0.8841 Y1.1452  
G01 X-0.8835 Y1.1455  
G01 X-0.8813 Y1.1461  
G01 X-0.8792 Y1.1468  
G01 X-0.8785 Y1.1468  
G01 X-0.8779 Y1.1470  
G01 X-0.8757 Y1.1470  
G01 X-0.8734 Y1.1471  
G01 X-0.8728 Y1.1470  
G01 X-0.6507 Y1.1470  
G01 X-0.6484 Y1.1471  
G01 X-0.6478 Y1.1470  
G01 X-0.6471 Y1.1470  
G01 X-0.6449 Y1.1464  
G01 X-0.6428 Y1.1460  
G01 X-0.6422 Y1.1457  
G01 X-0.6415 Y1.1455  
G01 X-0.6396 Y1.1444  
G01 X-0.6376 Y1.1434  
G01 X-0.6371 Y1.1429  
G01 X-0.6365 Y1.1426  
G01 X-0.6349 Y1.1410  
G01 X-0.6332 Y1.1395  
G01 X-0.6329 Y1.1390  
G01 X-0.6324 Y1.1385  
G01 X-0.6313 Y1.1366  
G01 X-0.6300 Y1.1347  
G01 X-0.6298 Y1.1341  
G01 X-0.6295 Y1.1335  
G01 X-0.6289 Y1.1313  
G01 X-0.5341 Y0.8470  
G01 X-0.3515 Y0.8470  
G01 X-0.3501 Y0.8472  
G01 X-0.3486 Y0.8470  
G01 X-0.3471 Y0.8470  
G01 X-0.3458 Y0.8466  
G01 X-0.1926 Y0.8275  
G01 X-0.1919 Y0.8288  
G01 X-0.1874 Y0.8351  
G01 X-0.1819 Y0.8405  
G01 X-0.1757 Y0.8451  
G01 X-0.1720 Y0.8469  
G01 X-0.1720 Y0.9562  
G01 X-0.1757 Y0.9581  
G01 X-0.1819 Y0.9626  
G01 X-0.1874 Y0.9681  
G01 X-0.1919 Y0.9743  
G01 X-0.1954 Y0.9812  
G01 X-0.1978 Y0.9885  
G01 X-0.1990 Y0.9961  
G01 X-0.1990 Y1.0039  
G01 X-0.1978 Y1.0115  
G01 X-0.1954 Y1.0188  
G01 X-0.1919 Y1.0257  
G01 X-0.1874 Y1.0319  
G01 X-0.1819 Y1.0374  
G01 X-0.1757 Y1.0419  
G01 X-0.1688 Y1.0454  
G01 X-0.1615 Y1.0478  
G01 X-0.1539 Y1.0490  
G01 X-0.1461 Y1.0490  
G01 X-0.1385 Y1.0478  
G01 X-0.1312 Y1.0454  
G01 X-0.1243 Y1.0419  
G01 X-0.1181 Y1.0374  
G01 X-0.1126 Y1.0319  
G01 X-0.1081 Y1.0257  
G01 X-0.1046 Y1.0188  
G01 X-0.1022 Y1.0115  
G01 X-0.1010 Y1.0039  
G01 X-0.1010 Y0.9961  
G01 X-0.1022 Y0.9885  
G01 X-0.1046 Y0.9812  
G01 X-0.1081 Y0.9743  
G01 X-0.1126 Y0.9681  
G01 X-0.1181 Y0.9626  
G01 X-0.1243 Y0.9581  
G01 X-0.1280 Y0.9562  
G01 X-0.1280 Y0.8469  
G01 X-0.1243 Y0.8451  
G01 X-0.1181 Y0.8405  
G01 X-0.1126 Y0.8351  
G01 X-0.1081 Y0.8288  
G01 X-0.1046 Y0.8220  
G01 X-0.1022 Y0.8146  
G01 X-0.1010 Y0.8070  
G01 X-0.1010 Y0.7993  
G01 X-0.1022 Y0.7917  
G01 X-0.1046 Y0.7843  
G01 X-0.1081 Y0.7775  
G01 X-0.1126 Y0.7712  
G01 X-0.1181 Y0.7658  
G01 X-0.1243 Y0.7612  
G01 X-0.1312 Y0.7577  
G01 X-0.1385 Y0.7554  
G01 X-0.1461 Y0.7541  
G01 X-0.1539 Y0.7541  
G01 X-0.1615 Y0.7554  
G01 X-0.1688 Y0.7577  
G01 X-0.1757 Y0.7612  
G01 X-0.1819 Y0.7658  
G01 X-0.1874 Y0.7712  
G01 X-0.1919 Y0.7775  
G01 X-0.1950 Y0.7834  
G01 X-0.3514 Y0.8030  
G01 X-0.5493 Y0.8030  
G01 X-0.5516 Y0.8029  
G01 X-0.5522 Y0.8030  
G01 X-0.5529 Y0.8030  
G01 X-0.5551 Y0.8036  
G01 X-0.5572 Y0.8040  
G01 X-0.5578 Y0.8043  
G01 X-0.5585 Y0.8045  
G01 X-0.5604 Y0.8056  
G01 X-0.5624 Y0.8066  
G01 X-0.5629 Y0.8071  
G01 X-0.5635 Y0.8074  
G01 X-0.5651 Y0.8090  
G01 X-0.5668 Y0.8105  
G01 X-0.5671 Y0.8110  
G01 X-0.5676 Y0.8115  
G01 X-0.5687 Y0.8134  
G01 X-0.5700 Y0.8153  
G01 X-0.5702 Y0.8159  
G01 X-0.5705 Y0.8165  
G01 X-0.5711 Y0.8187  
G01 X-0.6659 Y1.1030  
G01 X-0.8614 Y1.1030  
G01 X-0.8909 Y1.0441  
G01 X-0.8904 Y1.0435  
G01 X-0.8875 Y1.0364  
G01 X-0.8860 Y1.0288  
G01 X-0.8860 Y1.0212  
G01 X-0.8875 Y1.0136  
G01 X-0.8904 Y1.0065  
G01 X-0.8947 Y1.0001  
G01 X-0.9001 Y0.9947  
G01 X-0.9065 Y0.9904  
G01 X-0.9136 Y0.9875  
G01 X-0.9212 Y0.9860  
G01 X-0.9288 Y0.9860  
G01 X-0.9364 Y0.9875  
G01 X-0.9435 Y0.9904  
G01 X-0.9499 Y0.9947  
G00 Z0.0500  
G00 X-0.7499 Y0.9947  
G01 Z-0.0040 F10    
G01 X-0.7553 Y1.0001  F20    
G01 X-0.7596 Y1.0065  
G01 X-0.7625 Y1.0136  
G01 X-0.7640 Y1.0212  
G01 X-0.7640 Y1.0288  
G01 X-0.7625 Y1.0364  
G01 X-0.7596 Y1.0435  
G01 X-0.7553 Y1.0499  
G01 X-0.7499 Y1.0553  
G01 X-0.7435 Y1.0596  
G01 X-0.7364 Y1.0625  
G01 X-0.7288 Y1.0640  
G01 X-0.7212 Y1.0640  
G01 X-0.7136 Y1.0625  
G01 X-0.7065 Y1.0596  
G01 X-0.7001 Y1.0553  
G01 X-0.6947 Y1.0499  
G01 X-0.6904 Y1.0435  
G01 X-0.6875 Y1.0364  
G01 X-0.6860 Y1.0288  
G01 X-0.6860 Y1.0212  
G01 X-0.6875 Y1.0136  
G01 X-0.6904 Y1.0065  
G01 X-0.6947 Y1.0001  
G01 X-0.7001 Y0.9947  
G01 X-0.7030 Y0.9928  
G01 X-0.7030 Y0.9802  
G01 X-0.6914 Y0.9570  
G01 X-0.6867 Y0.9570  
G01 X-0.6680 Y0.9383  
G01 X-0.6680 Y0.9117  
G01 X-0.6867 Y0.8930  
G01 X-0.7133 Y0.8930  
G01 X-0.7320 Y0.9117  
G01 X-0.7320 Y0.9383  
G01 X-0.7315 Y0.9388  
G01 X-0.7444 Y0.9646  
G01 X-0.7455 Y0.9665  
G01 X-0.7457 Y0.9672  
G01 X-0.7460 Y0.9678  
G01 X-0.7464 Y0.9699  
G01 X-0.7470 Y0.9721  
G01 X-0.7470 Y0.9728  
G01 X-0.7471 Y0.9734  
G01 X-0.7470 Y0.9757  
G01 X-0.7470 Y0.9928  
G01 X-0.7499 Y0.9947  
G00 Z0.0500  
G00 X-0.7947 Y1.3001  
G01 Z-0.0040 F10    
G01 X-0.8001 Y1.2947  F20    
G01 X-0.8065 Y1.2904  
G01 X-0.8136 Y1.2875  
G01 X-0.8212 Y1.2860  
G01 X-0.8288 Y1.2860  
G01 X-0.8364 Y1.2875  
G01 X-0.8435 Y1.2904  
G01 X-0.8499 Y1.2947  
G01 X-0.8553 Y1.3001  
G01 X-0.8596 Y1.3065  
G01 X-0.8625 Y1.3136  
G01 X-0.8640 Y1.3212  
G01 X-0.8640 Y1.3288  
G01 X-0.8625 Y1.3364  
G01 X-0.8596 Y1.3435  
G01 X-0.8553 Y1.3499  
G01 X-0.8499 Y1.3553  
G01 X-0.8435 Y1.3596  
G01 X-0.8385 Y1.3616  
G01 X-0.8215 Y1.4299  
G01 X-0.8210 Y1.4322  
G01 X-0.8208 Y1.4327  
G01 X-0.8206 Y1.4331  
G01 X-0.8195 Y1.4353  
G01 X-0.7954 Y1.4834  
G01 X-0.7950 Y1.4847  
G01 X-0.7941 Y1.4860  
G01 X-0.7934 Y1.4874  
G01 X-0.7925 Y1.4884  
G01 X-0.7918 Y1.4895  
G01 X-0.7906 Y1.4906  
G01 X-0.7895 Y1.4918  
G01 X-0.7884 Y1.4925  
G01 X-0.7874 Y1.4934  
G01 X-0.7860 Y1.4941  
G01 X-0.7847 Y1.4950  
G01 X-0.7834 Y1.4954  
G01 X-0.7828 Y1.4957  
G01 X-0.7830 Y1.4968  
G01 X-0.7830 Y1.5032  
G01 X-0.7818 Y1.5093  
G01 X-0.7794 Y1.5152  
G01 X-0.7759 Y1.5204  
G01 X-0.7714 Y1.5249  
G01 X-0.7662 Y1.5284  
G01 X-0.7603 Y1.5308  
G01 X-0.7542 Y1.5320  
G01 X-0.6958 Y1.5320  
G01 X-0.6897 Y1.5308  
G01 X-0.6838 Y1.5284  
G01 X-0.6786 Y1.5249  
G01 X-0.6741 Y1.5204  
G01 X-0.6706 Y1.5152  
G01 X-0.6682 Y1.5093  
G01 X-0.6670 Y1.5032  
G01 X-0.6670 Y1.4968  
G01 X-0.6682 Y1.4907  
G01 X-0.6706 Y1.4848  
G01 X-0.6741 Y1.4796  
G01 X-0.6786 Y1.4751  
G01 X-0.6838 Y1.4716  
G01 X-0.6897 Y1.4692  
G01 X-0.6958 Y1.4680  
G01 X-0.7398 Y1.4680  
G01 X-0.7586 Y1.4586  
G01 X-0.7792 Y1.4173  
G01 X-0.7958 Y1.3510  
G01 X-0.7947 Y1.3499  
G01 X-0.7904 Y1.3435  
G01 X-0.7875 Y1.3364  
G01 X-0.7860 Y1.3288  
G01 X-0.7860 Y1.3212  
G01 X-0.7875 Y1.3136  
G01 X-0.7904 Y1.3065  
G01 X-0.7947 Y1.3001  
G00 Z0.0500  
G00 X-0.8947 Y1.3001  
G01 Z-0.0040 F10    
G01 X-0.9001 Y1.2947  F20    
G01 X-0.9065 Y1.2904  
G01 X-0.9136 Y1.2875  
G01 X-0.9198 Y1.2863  
G01 X-0.9543 Y1.2172  
G01 X-0.9545 Y1.2165  
G01 X-0.9556 Y1.2146  
G01 X-0.9566 Y1.2126  
G01 X-0.9571 Y1.2121  
G01 X-0.9574 Y1.2115  
G01 X-0.9590 Y1.2099  
G01 X-0.9605 Y1.2082  
G01 X-0.9610 Y1.2079  
G01 X-0.9615 Y1.2074  
G01 X-0.9634 Y1.2063  
G01 X-0.9653 Y1.2050  
G01 X-0.9659 Y1.2048  
G01 X-0.9665 Y1.2045  
G01 X-0.9687 Y1.2039  
G01 X-0.9708 Y1.2032  
G01 X-0.9715 Y1.2032  
G01 X-0.9721 Y1.2030  
G01 X-0.9743 Y1.2030  
G01 X-0.9766 Y1.2029  
G01 X-0.9772 Y1.2030  
G01 X-1.1243 Y1.2030  
G01 X-1.1266 Y1.2029  
G01 X-1.1272 Y1.2030  
G01 X-1.1279 Y1.2030  
G01 X-1.1301 Y1.2036  
G01 X-1.1322 Y1.2040  
G01 X-1.1328 Y1.2043  
G01 X-1.1335 Y1.2045  
G01 X-1.1354 Y1.2056  
G01 X-1.1612 Y1.2185  
G01 X-1.1617 Y1.2180  
G01 X-1.1883 Y1.2180  
G01 X-1.2070 Y1.2367  
G01 X-1.2070 Y1.2633  
G01 X-1.1883 Y1.2820  
G01 X-1.1617 Y1.2820  
G01 X-1.1430 Y1.2633  
G01 X-1.1430 Y1.2586  
G01 X-1.1198 Y1.2470  
G01 X-0.9886 Y1.2470  
G01 X-0.9591 Y1.3059  
G01 X-0.9596 Y1.3065  
G01 X-0.9625 Y1.3136  
G01 X-0.9640 Y1.3212  
G01 X-0.9640 Y1.3288  
G01 X-0.9625 Y1.3364  
G01 X-0.9596 Y1.3435  
G01 X-0.9553 Y1.3499  
G01 X-0.9499 Y1.3553  
G01 X-0.9470 Y1.3572  
G01 X-0.9470 Y1.4017  
G01 X-0.9570 Y1.4117  
G01 X-0.9570 Y1.4383  
G01 X-0.9383 Y1.4570  
G01 X-0.9117 Y1.4570  
G01 X-0.8930 Y1.4383  
G01 X-0.8930 Y1.4117  
G01 X-0.9030 Y1.4017  
G01 X-0.9030 Y1.3572  
G01 X-0.9001 Y1.3553  
G01 X-0.8947 Y1.3499  
G01 X-0.8904 Y1.3435  
G01 X-0.8875 Y1.3364  
G01 X-0.8860 Y1.3288  
G01 X-0.8860 Y1.3212  
G01 X-0.8875 Y1.3136  
G01 X-0.8904 Y1.3065  
G01 X-0.8947 Y1.3001  
G00 Z0.0500  
G00 X-1.2180 Y1.3133  
G01 Z-0.0040 F10    
G01 X-1.2180 Y1.2867  F20    
G01 X-1.2367 Y1.2680  
G01 X-1.2633 Y1.2680  
G01 X-1.2820 Y1.2867  
G01 X-1.2820 Y1.2914  
G01 X-1.3078 Y1.3043  
G01 X-1.3085 Y1.3045  
G01 X-1.3104 Y1.3056  
G01 X-1.3124 Y1.3066  
G01 X-1.3129 Y1.3071  
G01 X-1.3135 Y1.3074  
G01 X-1.3151 Y1.3090  
G01 X-1.3168 Y1.3105  
G01 X-1.3171 Y1.3110  
G01 X-1.3176 Y1.3115  
G01 X-1.3187 Y1.3134  
G01 X-1.3200 Y1.3153  
G01 X-1.3202 Y1.3159  
G01 X-1.3205 Y1.3165  
G01 X-1.3211 Y1.3187  
G01 X-1.3218 Y1.3208  
G01 X-1.3218 Y1.3214  
G01 X-1.3220 Y1.3221  
G01 X-1.3220 Y1.3243  
G01 X-1.3221 Y1.3266  
G01 X-1.3220 Y1.3272  
G01 X-1.3220 Y1.3279  
G01 X-1.3214 Y1.3300  
G01 X-1.3210 Y1.3322  
G01 X-1.3207 Y1.3328  
G01 X-1.2214 Y1.7050  
G01 X-1.2210 Y1.7072  
G01 X-1.2207 Y1.7078  
G01 X-1.2205 Y1.7085  
G01 X-1.2194 Y1.7104  
G01 X-1.1820 Y1.7852  
G01 X-1.1820 Y1.8292  
G01 X-1.1808 Y1.8353  
G01 X-1.1784 Y1.8412  
G01 X-1.1749 Y1.8464  
G01 X-1.1704 Y1.8509  
G01 X-1.1652 Y1.8544  
G01 X-1.1593 Y1.8568  
G01 X-1.1553 Y1.8576  
G01 X-1.0782 Y2.1080  
G01 X-1.0820 Y2.1117  
G01 X-1.0820 Y2.1383  
G01 X-1.0633 Y2.1570  
G01 X-1.0367 Y2.1570  
G01 X-1.0180 Y2.1383  
G01 X-1.0180 Y2.1117  
G01 X-1.0367 Y2.0930  
G01 X-1.1180 Y1.8292  
G01 X-1.1180 Y1.7708  
G01 X-1.1192 Y1.7647  
G01 X-1.1216 Y1.7588  
G01 X-1.1251 Y1.7536  
G01 X-1.1296 Y1.7491  
G01 X-1.1348 Y1.7456  
G01 X-1.1407 Y1.7432  
G01 X-1.1468 Y1.7420  
G01 X-1.1532 Y1.7420  
G01 X-1.1543 Y1.7422  
G01 X-1.1793 Y1.6922  
G01 X-1.2741 Y1.3367  
G01 X-1.2638 Y1.3315  
G01 X-1.2633 Y1.3320  
G01 X-1.2367 Y1.3320  
G01 X-1.2180 Y1.3133  
G00 Z0.0500  
G00 X-0.4714 Y1.4751  
G01 Z-0.0040 F10    
G01 X-0.4759 Y1.4796  F20    
G01 X-0.4794 Y1.4848  
G01 X-0.4818 Y1.4907  
G01 X-0.4830 Y1.4968  
G01 X-0.4830 Y1.5032  
G01 X-0.4818 Y1.5093  
G01 X-0.4794 Y1.5152  
G01 X-0.4759 Y1.5204  
G01 X-0.4714 Y1.5249  
G01 X-0.4662 Y1.5284  
G01 X-0.4603 Y1.5308  
G01 X-0.4542 Y1.5320  
G01 X-0.3958 Y1.5320  
G01 X-0.3897 Y1.5308  
G01 X-0.3838 Y1.5284  
G01 X-0.3786 Y1.5249  
G01 X-0.3757 Y1.5220  
G01 X-0.2472 Y1.5220  
G01 X-0.1945 Y1.5237  
G01 X-0.1919 Y1.5288  
G01 X-0.1874 Y1.5351  
G01 X-0.1819 Y1.5405  
G01 X-0.1757 Y1.5451  
G01 X-0.1720 Y1.5469  
G01 X-0.1720 Y1.6562  
G01 X-0.1757 Y1.6581  
G01 X-0.1819 Y1.6626  
G01 X-0.1874 Y1.6681  
G01 X-0.1919 Y1.6743  
G01 X-0.1954 Y1.6812  
G01 X-0.1978 Y1.6885  
G01 X-0.1990 Y1.6961  
G01 X-0.1990 Y1.7039  
G01 X-0.1978 Y1.7115  
G01 X-0.1954 Y1.7188  
G01 X-0.1919 Y1.7257  
G01 X-0.1874 Y1.7319  
G01 X-0.1819 Y1.7374  
G01 X-0.1757 Y1.7419  
G01 X-0.1688 Y1.7454  
G01 X-0.1615 Y1.7478  
G01 X-0.1539 Y1.7490  
G01 X-0.1461 Y1.7490  
G01 X-0.1385 Y1.7478  
G01 X-0.1312 Y1.7454  
G01 X-0.1243 Y1.7419  
G01 X-0.1181 Y1.7374  
G01 X-0.1126 Y1.7319  
G01 X-0.1081 Y1.7257  
G01 X-0.1046 Y1.7188  
G01 X-0.1022 Y1.7115  
G01 X-0.1010 Y1.7039  
G01 X-0.1010 Y1.6961  
G01 X-0.1022 Y1.6885  
G01 X-0.1046 Y1.6812  
G01 X-0.1081 Y1.6743  
G01 X-0.1126 Y1.6681  
G01 X-0.1181 Y1.6626  
G01 X-0.1243 Y1.6581  
G01 X-0.1280 Y1.6562  
G01 X-0.1280 Y1.5469  
G01 X-0.1243 Y1.5451  
G01 X-0.1181 Y1.5405  
G01 X-0.1126 Y1.5351  
G01 X-0.1081 Y1.5288  
G01 X-0.1046 Y1.5220  
G01 X-0.1022 Y1.5146  
G01 X-0.1010 Y1.5070  
G01 X-0.1010 Y1.4993  
G01 X-0.1022 Y1.4917  
G01 X-0.1046 Y1.4843  
G01 X-0.1081 Y1.4775  
G01 X-0.1126 Y1.4712  
G01 X-0.1181 Y1.4658  
G01 X-0.1243 Y1.4612  
G01 X-0.1312 Y1.4577  
G01 X-0.1385 Y1.4554  
G01 X-0.1461 Y1.4541  
G01 X-0.1539 Y1.4541  
G01 X-0.1615 Y1.4554  
G01 X-0.1688 Y1.4577  
G01 X-0.1757 Y1.4612  
G01 X-0.1819 Y1.4658  
G01 X-0.1874 Y1.4712  
G01 X-0.1919 Y1.4775  
G01 X-0.1931 Y1.4797  
G01 X-0.2436 Y1.4781  
G01 X-0.2440 Y1.4780  
G01 X-0.2465 Y1.4780  
G01 X-0.2490 Y1.4779  
G01 X-0.2494 Y1.4780  
G01 X-0.3757 Y1.4780  
G01 X-0.3786 Y1.4751  
G01 X-0.3838 Y1.4716  
G01 X-0.3897 Y1.4692  
G01 X-0.3958 Y1.4680  
G01 X-0.4542 Y1.4680  
G01 X-0.4603 Y1.4692  
G01 X-0.4662 Y1.4716  
G01 X-0.4714 Y1.4751  
G00 Z0.0500  
G00 X-0.4684 Y2.0375  
G01 Z-0.0040 F10    
G01 X-0.4771 Y2.0361  F20    
G01 X-0.5859 Y2.0361  
G01 X-0.5946 Y2.0375  
G01 X-0.6030 Y2.0402  
G01 X-0.6108 Y2.0442  
G01 X-0.6180 Y2.0494  
G01 X-0.6242 Y2.0556  
G01 X-0.6294 Y2.0628  
G01 X-0.6334 Y2.0706  
G01 X-0.6361 Y2.0790  
G01 X-0.6375 Y2.0877  
G01 X-0.6375 Y2.0965  
G01 X-0.6361 Y2.1052  
G01 X-0.6334 Y2.1136  
G01 X-0.6294 Y2.1215  
G01 X-0.6242 Y2.1286  
G01 X-0.6180 Y2.1348  
G01 X-0.6108 Y2.1400  
G01 X-0.6030 Y2.1440  
G01 X-0.5946 Y2.1467  
G01 X-0.5859 Y2.1481  
G01 X-0.4771 Y2.1481  
G01 X-0.4684 Y2.1467  
G01 X-0.4600 Y2.1440  
G01 X-0.4521 Y2.1400  
G01 X-0.4457 Y2.1354  
G01 X-0.3220 Y2.2591  
G01 X-0.3220 Y2.7409  
G01 X-0.5091 Y2.9280  
G01 X-0.6909 Y2.9280  
G01 X-0.7570 Y2.8619  
G01 X-0.7570 Y2.8322  
G01 X-0.7780 Y2.8112  
G01 X-0.7780 Y2.7888  
G01 X-0.7570 Y2.7678  
G01 X-0.7570 Y2.7322  
G01 X-0.7822 Y2.7070  
G01 X-0.8178 Y2.7070  
G01 X-0.8430 Y2.7322  
G01 X-0.8430 Y2.7678  
G01 X-0.8220 Y2.7888  
G01 X-0.8220 Y2.8112  
G01 X-0.8430 Y2.8322  
G01 X-0.8430 Y2.8678  
G01 X-0.8178 Y2.8930  
G01 X-0.7881 Y2.8930  
G01 X-0.7135 Y2.9676  
G01 X-0.7085 Y2.9705  
G01 X-0.7029 Y2.9720  
G01 X-0.4971 Y2.9720  
G01 X-0.4915 Y2.9705  
G01 X-0.4865 Y2.9676  
G01 X-0.2824 Y2.7635  
G01 X-0.2795 Y2.7585  
G01 X-0.2780 Y2.7529  
G01 X-0.2780 Y2.2471  
G01 X-0.2795 Y2.2415  
G01 X-0.2824 Y2.2365  
G01 X-0.2865 Y2.2324  
G01 X-0.4255 Y2.0934  
G01 X-0.4255 Y2.0877  
G01 X-0.4269 Y2.0790  
G01 X-0.4296 Y2.0706  
G01 X-0.4336 Y2.0628  
G01 X-0.4388 Y2.0556  
G01 X-0.4450 Y2.0494  
G01 X-0.4521 Y2.0442  
G01 X-0.4600 Y2.0402  
G01 X-0.4684 Y2.0375  
G00 Z0.0500  
G00 X-0.5754 Y2.2104  
G01 Z-0.0040 F10    
G01 X-0.5816 Y2.2041  F20    
G01 X-0.5888 Y2.1990  
G01 X-0.5966 Y2.1950  
G01 X-0.6050 Y2.1922  
G01 X-0.6137 Y2.1909  
G01 X-0.6225 Y2.1909  
G01 X-0.6312 Y2.1922  
G01 X-0.6396 Y2.1950  
G01 X-0.6475 Y2.1990  
G01 X-0.6546 Y2.2041  
G01 X-0.6608 Y2.2104  
G01 X-0.6660 Y2.2175  
G01 X-0.6700 Y2.2254  
G01 X-0.6727 Y2.2337  
G01 X-0.6741 Y2.2424  
G01 X-0.6741 Y2.3396  
G01 X-0.7167 Y2.3680  
G01 X-0.7383 Y2.3680  
G01 X-0.7570 Y2.3867  
G01 X-0.7570 Y2.3941  
G01 X-0.9153 Y2.4930  
G01 X-0.9383 Y2.4930  
G01 X-0.9483 Y2.5030  
G01 X-1.0267 Y2.5030  
G01 X-1.0367 Y2.4930  
G01 X-1.0633 Y2.4930  
G01 X-1.0820 Y2.5117  
G01 X-1.0820 Y2.5383  
G01 X-1.0633 Y2.5570  
G01 X-1.0367 Y2.5570  
G01 X-1.0267 Y2.5470  
G01 X-0.9483 Y2.5470  
G01 X-0.9383 Y2.5570  
G01 X-0.9117 Y2.5570  
G01 X-0.8930 Y2.5383  
G01 X-0.8930 Y2.5309  
G01 X-0.7347 Y2.4320  
G01 X-0.7117 Y2.4320  
G01 X-0.6930 Y2.4133  
G01 X-0.6930 Y2.4051  
G01 X-0.6606 Y2.3835  
G01 X-0.6546 Y2.3896  
G01 X-0.6475 Y2.3947  
G01 X-0.6396 Y2.3987  
G01 X-0.6312 Y2.4015  
G01 X-0.6225 Y2.4029  
G01 X-0.6137 Y2.4029  
G01 X-0.6050 Y2.4015  
G01 X-0.5966 Y2.3987  
G01 X-0.5888 Y2.3947  
G01 X-0.5816 Y2.3896  
G01 X-0.5754 Y2.3833  
G01 X-0.5702 Y2.3762  
G01 X-0.5662 Y2.3683  
G01 X-0.5635 Y2.3600  
G01 X-0.5621 Y2.3513  
G01 X-0.5621 Y2.2424  
G01 X-0.5635 Y2.2337  
G01 X-0.5662 Y2.2254  
G01 X-0.5702 Y2.2175  
G01 X-0.5754 Y2.2104  
G00 Z0.0500  
G00 X-0.5859 Y2.5361  
G01 Z-0.0040 F10    
G01 X-0.5946 Y2.5375  F20    
G01 X-0.6030 Y2.5402  
G01 X-0.6108 Y2.5442  
G01 X-0.6180 Y2.5494  
G01 X-0.6242 Y2.5556  
G01 X-0.6294 Y2.5628  
G01 X-0.6334 Y2.5706  
G01 X-0.6361 Y2.5790  
G01 X-0.6375 Y2.5877  
G01 X-0.6375 Y2.5965  
G01 X-0.6361 Y2.6052  
G01 X-0.6334 Y2.6136  
G01 X-0.6294 Y2.6215  
G01 X-0.6242 Y2.6286  
G01 X-0.6180 Y2.6348  
G01 X-0.6108 Y2.6400  
G01 X-0.6030 Y2.6440  
G01 X-0.5946 Y2.6467  
G01 X-0.5859 Y2.6481  
G01 X-0.4771 Y2.6481  
G01 X-0.4684 Y2.6467  
G01 X-0.4600 Y2.6440  
G01 X-0.4521 Y2.6400  
G01 X-0.4450 Y2.6348  
G01 X-0.4388 Y2.6286  
G01 X-0.4336 Y2.6215  
G01 X-0.4296 Y2.6136  
G01 X-0.4269 Y2.6052  
G01 X-0.4255 Y2.5965  
G01 X-0.4255 Y2.5877  
G01 X-0.4269 Y2.5790  
G01 X-0.4296 Y2.5706  
G01 X-0.4336 Y2.5628  
G01 X-0.4388 Y2.5556  
G01 X-0.4450 Y2.5494  
G01 X-0.4521 Y2.5442  
G01 X-0.4600 Y2.5402  
G01 X-0.4684 Y2.5375  
G01 X-0.4771 Y2.5361  
G01 X-0.5859 Y2.5361  
G00 Z0.0500  
G00 X-0.6930 Y2.5867  
G01 Z-0.0040 F10    
G01 X-0.7117 Y2.5680  F20    
G01 X-0.7383 Y2.5680  
G01 X-0.7570 Y2.5867  
G01 X-0.7570 Y2.6133  
G01 X-0.7383 Y2.6320  
G01 X-0.7318 Y2.6320  
G01 X-0.6727 Y2.7337  
G01 X-0.6741 Y2.7424  
G01 X-0.6741 Y2.8513  
G01 X-0.6727 Y2.8600  
G01 X-0.6700 Y2.8683  
G01 X-0.6660 Y2.8762  
G01 X-0.6608 Y2.8833  
G01 X-0.6546 Y2.8896  
G01 X-0.6475 Y2.8947  
G01 X-0.6396 Y2.8987  
G01 X-0.6312 Y2.9015  
G01 X-0.6225 Y2.9029  
G01 X-0.6137 Y2.9029  
G01 X-0.6050 Y2.9015  
G01 X-0.5966 Y2.8987  
G01 X-0.5888 Y2.8947  
G01 X-0.5816 Y2.8896  
G01 X-0.5754 Y2.8833  
G01 X-0.5702 Y2.8762  
G01 X-0.5662 Y2.8683  
G01 X-0.5635 Y2.8600  
G01 X-0.5621 Y2.8513  
G01 X-0.5621 Y2.7424  
G01 X-0.5635 Y2.7337  
G01 X-0.5662 Y2.7254  
G01 X-0.5702 Y2.7175  
G01 X-0.5754 Y2.7104  
G01 X-0.5816 Y2.7041  
G01 X-0.5888 Y2.6990  
G01 X-0.5966 Y2.6950  
G01 X-0.6050 Y2.6922  
G01 X-0.6137 Y2.6909  
G01 X-0.6225 Y2.6909  
G01 X-0.6312 Y2.6922  
G01 X-0.6396 Y2.6950  
G01 X-0.6433 Y2.6968  
G01 X-0.6930 Y2.6113  
G01 X-0.6930 Y2.5867  
G00 Z0.0500  
G00 X-0.8570 Y2.7322  
G01 Z-0.0040 F10    
G01 X-0.8822 Y2.7070  F20    
G01 X-0.9178 Y2.7070  
G01 X-0.9430 Y2.7322  
G01 X-0.9430 Y2.7678  
G01 X-0.9178 Y2.7930  
G01 X-0.8822 Y2.7930  
G01 X-0.8570 Y2.7678  
G01 X-0.8570 Y2.7322  
G00 Z0.0500  
G00 X-0.9570 Y2.7322  
G01 Z-0.0040 F10    
G01 X-0.9822 Y2.7070  F20    
G01 X-1.0178 Y2.7070  
G01 X-1.0430 Y2.7322  
G01 X-1.0430 Y2.7678  
G01 X-1.0178 Y2.7930  
G01 X-0.9822 Y2.7930  
G01 X-0.9570 Y2.7678  
G01 X-0.9570 Y2.7322  
G00 Z0.0500  
G00 X-1.0570 Y2.7322  
G01 Z-0.0040 F10    
G01 X-1.0822 Y2.7070  F20    
G01 X-1.0902 Y2.7070  
G01 X-1.1678 Y2.4534  
G01 X-1.1664 Y2.4521  
G01 X-1.1624 Y2.4465  
G01 X-1.1592 Y2.4403  
G01 X-1.1571 Y2.4337  
G01 X-1.1560 Y2.4269  
G01 X-1.1560 Y2.4200  
G01 X-1.1571 Y2.4131  
G01 X-1.1592 Y2.4065  
G01 X-1.1624 Y2.4004  
G01 X-1.1664 Y2.3948  
G01 X-1.1713 Y2.3899  
G01 X-1.1769 Y2.3858  
G01 X-1.1831 Y2.3826  
G01 X-1.1897 Y2.3805  
G01 X-1.1965 Y2.3794  
G01 X-1.2035 Y2.3794  
G01 X-1.2103 Y2.3805  
G01 X-1.2169 Y2.3826  
G01 X-1.2231 Y2.3858  
G01 X-1.2287 Y2.3899  
G01 X-1.2336 Y2.3948  
G01 X-1.2376 Y2.4004  
G01 X-1.2408 Y2.4065  
G01 X-1.2429 Y2.4131  
G01 X-1.2440 Y2.4200  
G01 X-1.2440 Y2.4269  
G01 X-1.2429 Y2.4337  
G01 X-1.2408 Y2.4403  
G01 X-1.2376 Y2.4465  
G01 X-1.2336 Y2.4521  
G01 X-1.2287 Y2.4570  
G01 X-1.2231 Y2.4611  
G01 X-1.2169 Y2.4642  
G01 X-1.2103 Y2.4663  
G01 X-1.2098 Y2.4664  
G01 X-1.1319 Y2.7211  
G01 X-1.1430 Y2.7322  
G01 X-1.1430 Y2.7678  
G01 X-1.1220 Y2.7888  
G01 X-1.1220 Y2.8112  
G01 X-1.1430 Y2.8322  
G01 X-1.1430 Y2.8678  
G01 X-1.1178 Y2.8930  
G01 X-1.0822 Y2.8930  
G01 X-1.0570 Y2.8678  
G01 X-1.0570 Y2.8322  
G01 X-1.0780 Y2.8112  
G01 X-1.0780 Y2.7888  
G01 X-1.0570 Y2.7678  
G01 X-1.0570 Y2.7322  
G00 Z0.0500  
G00 X-1.0430 Y2.8322  
G01 Z-0.0040 F10    
G01 X-1.0430 Y2.8678  F20    
G01 X-1.0178 Y2.8930  
G01 X-0.9822 Y2.8930  
G01 X-0.9570 Y2.8678  
G01 X-0.9570 Y2.8322  
G01 X-0.9822 Y2.8070  
G01 X-1.0178 Y2.8070  
G01 X-1.0430 Y2.8322  
G00 Z0.0500  
G00 X-0.9430 Y2.8322  
G01 Z-0.0040 F10    
G01 X-0.9430 Y2.8678  F20    
G01 X-0.9178 Y2.8930  
G01 X-0.8822 Y2.8930  
G01 X-0.8570 Y2.8678  
G01 X-0.8570 Y2.8322  
G01 X-0.8822 Y2.8070  
G01 X-0.9178 Y2.8070  
G01 X-0.9430 Y2.8322  
G00 Z0.0500  
G00 X-1.4570 Y2.8322  
G01 Z-0.0040 F10    
G01 X-1.4780 Y2.8112  F20    
G01 X-1.4780 Y2.7888  
G01 X-1.4570 Y2.7678  
G01 X-1.4570 Y2.7322  
G01 X-1.4703 Y2.7189  
G01 X-1.4121 Y2.4655  
G01 X-1.4081 Y2.4642  
G01 X-1.4019 Y2.4611  
G01 X-1.3963 Y2.4570  
G01 X-1.3914 Y2.4521  
G01 X-1.3874 Y2.4465  
G01 X-1.3842 Y2.4403  
G01 X-1.3821 Y2.4337  
G01 X-1.3810 Y2.4269  
G01 X-1.3810 Y2.4200  
G01 X-1.3821 Y2.4131  
G01 X-1.3842 Y2.4065  
G01 X-1.3874 Y2.4004  
G01 X-1.3914 Y2.3948  
G01 X-1.3963 Y2.3899  
G01 X-1.4019 Y2.3858  
G01 X-1.4081 Y2.3826  
G01 X-1.4147 Y2.3805  
G01 X-1.4215 Y2.3794  
G01 X-1.4285 Y2.3794  
G01 X-1.4353 Y2.3805  
G01 X-1.4419 Y2.3826  
G01 X-1.4481 Y2.3858  
G01 X-1.4537 Y2.3899  
G01 X-1.4586 Y2.3948  
G01 X-1.4626 Y2.4004  
G01 X-1.4658 Y2.4065  
G01 X-1.4679 Y2.4131  
G01 X-1.4690 Y2.4200  
G01 X-1.4690 Y2.4269  
G01 X-1.4679 Y2.4337  
G01 X-1.4658 Y2.4403  
G01 X-1.4626 Y2.4465  
G01 X-1.4586 Y2.4521  
G01 X-1.4550 Y2.4557  
G01 X-1.5127 Y2.7070  
G01 X-1.5178 Y2.7070  
G01 X-1.5430 Y2.7322  
G01 X-1.5430 Y2.7678  
G01 X-1.5220 Y2.7888  
G01 X-1.5220 Y2.8112  
G01 X-1.5430 Y2.8322  
G01 X-1.5430 Y2.8678  
G01 X-1.5178 Y2.8930  
G01 X-1.4822 Y2.8930  
G01 X-1.4570 Y2.8678  
G01 X-1.4570 Y2.8322  
G00 Z0.0500  
G00 X-0.0821 Y0.1845  
G01 Z-0.0040 F10    
G01 X-0.0828 Y0.1839  F20    
G01 X-0.0834 Y0.1833  
G01 X-0.0846 Y0.1825  
G01 X-0.0858 Y0.1816  
G01 X-0.0866 Y0.1812  
G01 X-0.0873 Y0.1807  
G01 X-0.0886 Y0.1802  
G01 X-0.2881 Y0.0797  
G01 X-0.2889 Y0.0792  
G01 X-0.2902 Y0.0786  
G01 X-0.2915 Y0.0780  
G01 X-0.2923 Y0.0777  
G01 X-0.2931 Y0.0774  
G01 X-0.2946 Y0.0771  
G01 X-0.2960 Y0.0767  
G01 X-0.2968 Y0.0767  
G01 X-0.2977 Y0.0765  
G01 X-0.2991 Y0.0765  
G01 X-0.3006 Y0.0764  
G01 X-0.3014 Y0.0765  
G01 X-0.9737 Y0.0765  
G01 X-0.9746 Y0.0764  
G01 X-0.9760 Y0.0765  
G01 X-0.9773 Y0.0765  
G01 X-0.9783 Y0.0767  
G01 X-0.9793 Y0.0768  
G01 X-0.9805 Y0.0771  
G01 X-0.9819 Y0.0774  
G01 X-0.9828 Y0.0778  
G01 X-0.9837 Y0.0781  
G01 X-0.9849 Y0.0787  
G01 X-0.9861 Y0.0792  
G01 X-0.9869 Y0.0797  
G01 X-0.9878 Y0.0802  
G01 X-0.9889 Y0.0810  
G01 X-0.9900 Y0.0817  
G01 X-0.9907 Y0.0824  
G01 X-0.9914 Y0.0831  
G01 X-0.9923 Y0.0841  
G01 X-0.9933 Y0.0850  
G01 X-0.9938 Y0.0858  
G01 X-1.5423 Y0.7341  
G01 X-1.5433 Y0.7350  
G01 X-1.5438 Y0.7358  
G01 X-1.5444 Y0.7366  
G01 X-1.5451 Y0.7378  
G01 X-1.5458 Y0.7389  
G01 X-1.5462 Y0.7398  
G01 X-1.5467 Y0.7406  
G01 X-1.5471 Y0.7419  
G01 X-1.5476 Y0.7431  
G01 X-1.5478 Y0.7441  
G01 X-1.5481 Y0.7450  
G01 X-1.5482 Y0.7464  
G01 X-1.5485 Y0.7477  
G01 X-1.5485 Y0.7487  
G01 X-1.5486 Y0.7496  
G01 X-1.5485 Y0.7510  
G01 X-1.5485 Y2.3273  
G01 X-1.5476 Y2.3319  
G01 X-1.5458 Y2.3361  
G01 X-1.5433 Y2.3400  
G01 X-1.5400 Y2.3433  
G01 X-1.5361 Y2.3458  
G01 X-1.5319 Y2.3476  
G01 X-1.5273 Y2.3485  
G01 X-1.3485 Y2.3485  
G01 X-1.3485 Y2.5945  
G01 X-1.4040 Y2.7055  
G01 X-1.4184 Y2.7055  
G01 X-1.4445 Y2.7316  
G01 X-1.4445 Y2.7684  
G01 X-1.4235 Y2.7894  
G01 X-1.4235 Y2.8106  
G01 X-1.4445 Y2.8316  
G01 X-1.4445 Y2.8684  
G01 X-1.4184 Y2.8945  
G01 X-1.3816 Y2.8945  
G01 X-1.3555 Y2.8684  
G01 X-1.3555 Y2.8575  
G01 X-1.3445 Y2.8575  
G01 X-1.3445 Y2.8684  
G01 X-1.3184 Y2.8945  
G01 X-1.2816 Y2.8945  
G01 X-1.2606 Y2.8735  
G01 X-1.2394 Y2.8735  
G01 X-1.2184 Y2.8945  
G01 X-1.1816 Y2.8945  
G01 X-1.1555 Y2.8684  
G01 X-1.1555 Y2.8316  
G01 X-1.1765 Y2.8106  
G01 X-1.1765 Y2.7894  
G01 X-1.1555 Y2.7684  
G01 X-1.1555 Y2.7316  
G01 X-1.1816 Y2.7055  
G01 X-1.2184 Y2.7055  
G01 X-1.2445 Y2.7316  
G01 X-1.2445 Y2.7425  
G01 X-1.2555 Y2.7425  
G01 X-1.2555 Y2.7316  
G01 X-1.2816 Y2.7055  
G01 X-1.3184 Y2.7055  
G01 X-1.3394 Y2.7265  
G01 X-1.3606 Y2.7265  
G01 X-1.3615 Y2.7256  
G01 X-1.3046 Y2.6118  
G01 X-1.3042 Y2.6111  
G01 X-1.3036 Y2.6098  
G01 X-1.3029 Y2.6084  
G01 X-1.3027 Y2.6076  
G01 X-1.3024 Y2.6069  
G01 X-1.3021 Y2.6054  
G01 X-1.3017 Y2.6040  
G01 X-1.3017 Y2.6031  
G01 X-1.3015 Y2.6023  
G01 X-1.3015 Y2.6008  
G01 X-1.3014 Y2.5994  
G01 X-1.3015 Y2.5985  
G01 X-1.3015 Y2.3485  
G01 X-0.7511 Y2.3485  
G01 X-0.7498 Y2.3486  
G01 X-0.7488 Y2.3485  
G01 X-0.7477 Y2.3485  
G01 X-0.7465 Y2.3483  
G01 X-0.7452 Y2.3481  
G01 X-0.7442 Y2.3478  
G01 X-0.7431 Y2.3476  
G01 X-0.7420 Y2.3471  
G01 X-0.7408 Y2.3467  
G01 X-0.7399 Y2.3462  
G01 X-0.7389 Y2.3458  
G01 X-0.7378 Y2.3451  
G01 X-0.7367 Y2.3445  
G01 X-0.7359 Y2.3438  
G01 X-0.7350 Y2.3433  
G01 X-0.7341 Y2.3424  
G01 X-0.7332 Y2.3416  
G01 X-0.7325 Y2.3407  
G01 X-0.7317 Y2.3400  
G01 X-0.7311 Y2.3389  
G01 X-0.7303 Y2.3380  
G01 X-0.7298 Y2.3370  
G01 X-0.7292 Y2.3361  
G01 X-0.7287 Y2.3350  
G01 X-0.7281 Y2.3339  
G01 X-0.7278 Y2.3328  
G01 X-0.7274 Y2.3319  
G01 X-0.7272 Y2.3306  
G01 X-0.7268 Y2.3294  
G01 X-0.7267 Y2.3284  
G01 X-0.7265 Y2.3273  
G01 X-0.7265 Y2.3261  
G01 X-0.7020 Y2.0565  
G01 X-0.5928 Y1.8381  
G01 X-0.1543 Y2.2329  
G01 X-0.1545 Y2.2334  
G01 X-0.1559 Y2.2423  
G01 X-0.1559 Y2.3514  
G01 X-0.1545 Y2.3603  
G01 X-0.1517 Y2.3689  
G01 X-0.1476 Y2.3770  
G01 X-0.1423 Y2.3843  
G01 X-0.1359 Y2.3907  
G01 X-0.1286 Y2.3960  
G01 X-0.1219 Y2.3994  
G01 X-0.1219 Y2.6943  
G01 X-0.1286 Y2.6977  
G01 X-0.1359 Y2.7030  
G01 X-0.1423 Y2.7094  
G01 X-0.1476 Y2.7167  
G01 X-0.1517 Y2.7248  
G01 X-0.1545 Y2.7334  
G01 X-0.1559 Y2.7423  
G01 X-0.1559 Y2.8514  
G01 X-0.1545 Y2.8603  
G01 X-0.1517 Y2.8689  
G01 X-0.1476 Y2.8770  
G01 X-0.1423 Y2.8843  
G01 X-0.1359 Y2.8907  
G01 X-0.1286 Y2.8960  
G01 X-0.1205 Y2.9001  
G01 X-0.1119 Y2.9029  
G01 X-0.1030 Y2.9044  
G01 X-0.0939 Y2.9044  
G01 X-0.0850 Y2.9029  
G01 X-0.0764 Y2.9001  
G01 X-0.0683 Y2.8960  
G01 X-0.0610 Y2.8907  
G01 X-0.0546 Y2.8843  
G01 X-0.0492 Y2.8770  
G01 X-0.0451 Y2.8689  
G01 X-0.0423 Y2.8603  
G01 X-0.0409 Y2.8514  
G01 X-0.0409 Y2.7423  
G01 X-0.0423 Y2.7334  
G01 X-0.0451 Y2.7248  
G01 X-0.0492 Y2.7167  
G01 X-0.0546 Y2.7094  
G01 X-0.0610 Y2.7030  
G01 X-0.0683 Y2.6977  
G01 X-0.0749 Y2.6943  
G01 X-0.0749 Y2.3994  
G01 X-0.0683 Y2.3960  
G01 X-0.0610 Y2.3907  
G01 X-0.0546 Y2.3843  
G01 X-0.0492 Y2.3770  
G01 X-0.0451 Y2.3689  
G01 X-0.0423 Y2.3603  
G01 X-0.0409 Y2.3514  
G01 X-0.0409 Y2.2423  
G01 X-0.0423 Y2.2334  
G01 X-0.0451 Y2.2248  
G01 X-0.0492 Y2.2167  
G01 X-0.0546 Y2.2094  
G01 X-0.0610 Y2.2030  
G01 X-0.0683 Y2.1977  
G01 X-0.0764 Y2.1936  
G01 X-0.0850 Y2.1908  
G01 X-0.0939 Y2.1894  
G01 X-0.1030 Y2.1894  
G01 X-0.1119 Y2.1908  
G01 X-0.1205 Y2.1936  
G01 X-0.1251 Y2.1959  
G01 X-0.5659 Y1.7991  
G01 X-0.5567 Y1.7900  
G01 X-0.5542 Y1.7861  
G01 X-0.5524 Y1.7819  
G01 X-0.5515 Y1.7773  
G01 X-0.5515 Y1.7067  
G01 X-0.5360 Y1.6912  
G01 X-0.5360 Y1.6588  
G01 X-0.5515 Y1.6433  
G01 X-0.5515 Y1.3847  
G01 X-0.4100 Y1.2433  
G01 X-0.4067 Y1.2400  
G01 X-0.4042 Y1.2361  
G01 X-0.4024 Y1.2319  
G01 X-0.4015 Y1.2273  
G01 X-0.4015 Y1.0739  
G01 X-0.3915 Y1.0639  
G01 X-0.3915 Y1.0361  
G01 X-0.4111 Y1.0165  
G01 X-0.4177 Y1.0165  
G01 X-0.4665 Y0.9352  
G01 X-0.4665 Y0.9111  
G01 X-0.4861 Y0.8915  
G01 X-0.5139 Y0.8915  
G01 X-0.5335 Y0.9111  
G01 X-0.5335 Y0.9389  
G01 X-0.5139 Y0.9585  
G01 X-0.5073 Y0.9585  
G01 X-0.4585 Y1.0398  
G01 X-0.4585 Y1.0639  
G01 X-0.4485 Y1.0739  
G01 X-0.4485 Y1.2153  
G01 X-0.5933 Y1.3600  
G01 X-0.5958 Y1.3639  
G01 X-0.5976 Y1.3681  
G01 X-0.5985 Y1.3727  
G01 X-0.5985 Y1.6433  
G01 X-0.6140 Y1.6588  
G01 X-0.6140 Y1.6912  
G01 X-0.5985 Y1.7067  
G01 X-0.5985 Y1.7653  
G01 X-0.5997 Y1.7665  
G01 X-0.6113 Y1.7665  
G01 X-0.7626 Y1.6800  
G01 X-0.7639 Y1.6792  
G01 X-0.7646 Y1.6789  
G01 X-0.7654 Y1.6784  
G01 X-0.7668 Y1.6780  
G01 X-0.7681 Y1.6774  
G01 X-0.7690 Y1.6772  
G01 X-0.7697 Y1.6770  
G01 X-0.7712 Y1.6768  
G01 X-0.7727 Y1.6765  
G01 X-0.7735 Y1.6765  
G01 X-0.7743 Y1.6764  
G01 X-0.7758 Y1.6765  
G01 X-1.0015 Y1.6765  
G01 X-1.0015 Y1.3580  
G01 X-0.9992 Y1.3565  
G01 X-0.9935 Y1.3508  
G01 X-0.9891 Y1.3442  
G01 X-0.9861 Y1.3368  
G01 X-0.9845 Y1.3290  
G01 X-0.9845 Y1.3210  
G01 X-0.9861 Y1.3132  
G01 X-0.9891 Y1.3058  
G01 X-0.9935 Y1.2992  
G01 X-0.9992 Y1.2935  
G01 X-1.0058 Y1.2891  
G01 X-1.0132 Y1.2861  
G01 X-1.0210 Y1.2845  
G01 X-1.0290 Y1.2845  
G01 X-1.0368 Y1.2861  
G01 X-1.0442 Y1.2891  
G01 X-1.0508 Y1.2935  
G01 X-1.0565 Y1.2992  
G01 X-1.0609 Y1.3058  
G01 X-1.0615 Y1.3073  
G01 X-1.1548 Y1.3228  
G01 X-1.1611 Y1.3165  
G01 X-1.1889 Y1.3165  
G01 X-1.2085 Y1.3361  
G01 X-1.2085 Y1.3639  
G01 X-1.1941 Y1.3783  
G01 X-1.1805 Y1.4601  
G01 X-1.1822 Y1.4642  
G01 X-1.1835 Y1.4707  
G01 X-1.1835 Y1.5293  
G01 X-1.1822 Y1.5358  
G01 X-1.1797 Y1.5419  
G01 X-1.1760 Y1.5474  
G01 X-1.1714 Y1.5520  
G01 X-1.1659 Y1.5557  
G01 X-1.1598 Y1.5582  
G01 X-1.1533 Y1.5595  
G01 X-1.1467 Y1.5595  
G01 X-1.1402 Y1.5582  
G01 X-1.1341 Y1.5557  
G01 X-1.1286 Y1.5520  
G01 X-1.1240 Y1.5474  
G01 X-1.1203 Y1.5419  
G01 X-1.1178 Y1.5358  
G01 X-1.1165 Y1.5293  
G01 X-1.1165 Y1.4707  
G01 X-1.1178 Y1.4642  
G01 X-1.1203 Y1.4581  
G01 X-1.1240 Y1.4526  
G01 X-1.1286 Y1.4480  
G01 X-1.1341 Y1.4443  
G01 X-1.1356 Y1.4437  
G01 X-1.1478 Y1.3702  
G01 X-1.1467 Y1.3691  
G01 X-1.0537 Y1.3536  
G01 X-1.0508 Y1.3565  
G01 X-1.0485 Y1.3580  
G01 X-1.0485 Y1.9023  
G01 X-1.0476 Y1.9069  
G01 X-1.0458 Y1.9111  
G01 X-1.0433 Y1.9150  
G01 X-1.0400 Y1.9183  
G01 X-0.9890 Y1.9692  
G01 X-0.9890 Y1.9912  
G01 X-0.9676 Y2.0126  
G01 X-0.9522 Y2.1048  
G01 X-0.9585 Y2.1111  
G01 X-0.9585 Y2.1389  
G01 X-0.9389 Y2.1585  
G01 X-0.9111 Y2.1585  
G01 X-0.8915 Y2.1389  
G01 X-0.8915 Y2.1111  
G01 X-0.9059 Y2.0967  
G01 X-0.9217 Y2.0019  
G01 X-0.9110 Y1.9912  
G01 X-0.9110 Y1.9588  
G01 X-0.9338 Y1.9360  
G01 X-0.9558 Y1.9360  
G01 X-1.0015 Y1.8903  
G01 X-1.0015 Y1.7235  
G01 X-0.7812 Y1.7235  
G01 X-0.6335 Y1.8079  
G01 X-0.6335 Y1.8139  
G01 X-0.6333 Y1.8141  
G01 X-0.7459 Y2.0393  
G01 X-0.7469 Y2.0411  
G01 X-0.7469 Y2.0414  
G01 X-0.7471 Y2.0416  
G01 X-0.7476 Y2.0436  
G01 X-0.7482 Y2.0456  
G01 X-0.7482 Y2.0458  
G01 X-0.7483 Y2.0460  
G01 X-0.7484 Y2.0481  
G01 X-0.7715 Y2.3015  
G01 X-1.5015 Y2.3015  
G01 X-1.5015 Y2.0235  
G01 X-1.4812 Y2.0235  
G01 X-1.4803 Y2.0249  
G01 X-1.4749 Y2.0303  
G01 X-1.4685 Y2.0346  
G01 X-1.4614 Y2.0375  
G01 X-1.4538 Y2.0390  
G01 X-1.4462 Y2.0390  
G01 X-1.4386 Y2.0375  
G01 X-1.4315 Y2.0346  
G01 X-1.4251 Y2.0303  
G01 X-1.4197 Y2.0249  
G01 X-1.4154 Y2.0185  
G01 X-1.4125 Y2.0114  
G01 X-1.4110 Y2.0038  
G01 X-1.4110 Y1.9962  
G01 X-1.4125 Y1.9886  
G01 X-1.4154 Y1.9815  
G01 X-1.4197 Y1.9751  
G01 X-1.4251 Y1.9697  
G01 X-1.4315 Y1.9654  
G01 X-1.4386 Y1.9625  
G01 X-1.4462 Y1.9610  
G01 X-1.4538 Y1.9610  
G01 X-1.4614 Y1.9625  
G01 X-1.4685 Y1.9654  
G01 X-1.4749 Y1.9697  
G01 X-1.4803 Y1.9751  
G01 X-1.4812 Y1.9765  
G01 X-1.5015 Y1.9765  
G01 X-1.5015 Y0.7586  
G01 X-0.9641 Y0.1235  
G01 X-0.3056 Y0.1235  
G01 X-0.1219 Y0.2160  
G01 X-0.1219 Y0.2943  
G01 X-0.1286 Y0.2977  
G01 X-0.1359 Y0.3030  
G01 X-0.1423 Y0.3094  
G01 X-0.1476 Y0.3167  
G01 X-0.1517 Y0.3248  
G01 X-0.1545 Y0.3334  
G01 X-0.1559 Y0.3423  
G01 X-0.1559 Y0.4514  
G01 X-0.1545 Y0.4603  
G01 X-0.1517 Y0.4689  
G01 X-0.1476 Y0.4770  
G01 X-0.1423 Y0.4843  
G01 X-0.1359 Y0.4907  
G01 X-0.1286 Y0.4960  
G01 X-0.1205 Y0.5001  
G01 X-0.1119 Y0.5029  
G01 X-0.1030 Y0.5044  
G01 X-0.0939 Y0.5044  
G01 X-0.0850 Y0.5029  
G01 X-0.0764 Y0.5001  
G01 X-0.0683 Y0.4960  
G01 X-0.0610 Y0.4907  
G01 X-0.0546 Y0.4843  
G01 X-0.0492 Y0.4770  
G01 X-0.0451 Y0.4689  
G01 X-0.0423 Y0.4603  
G01 X-0.0409 Y0.4514  
G01 X-0.0409 Y0.3423  
G01 X-0.0423 Y0.3334  
G01 X-0.0451 Y0.3248  
G01 X-0.0492 Y0.3167  
G01 X-0.0546 Y0.3094  
G01 X-0.0610 Y0.3030  
G01 X-0.0683 Y0.2977  
G01 X-0.0749 Y0.2943  
G01 X-0.0749 Y0.2024  
G01 X-0.0748 Y0.2010  
G01 X-0.0749 Y0.2001  
G01 X-0.0749 Y0.1993  
G01 X-0.0752 Y0.1978  
G01 X-0.0754 Y0.1964  
G01 X-0.0757 Y0.1956  
G01 X-0.0758 Y0.1947  
G01 X-0.0764 Y0.1934  
G01 X-0.0768 Y0.1920  
G01 X-0.0773 Y0.1913  
G01 X-0.0776 Y0.1904  
G01 X-0.0784 Y0.1892  
G01 X-0.0791 Y0.1880  
G01 X-0.0797 Y0.1873  
G01 X-0.0802 Y0.1866  
G01 X-0.0812 Y0.1856  
G01 X-0.0821 Y0.1845  
G00 Z0.0500  
G00 X-0.4240 Y0.1876  
G01 Z-0.0040 F10    
G01 X-0.4254 Y0.1787  F20    
G01 X-0.4282 Y0.1701  
G01 X-0.4323 Y0.1620  
G01 X-0.4376 Y0.1547  
G01 X-0.4440 Y0.1483  
G01 X-0.4514 Y0.1429  
G01 X-0.4594 Y0.1388  
G01 X-0.4680 Y0.1360  
G01 X-0.4770 Y0.1346  
G01 X-0.5860 Y0.1346  
G01 X-0.5950 Y0.1360  
G01 X-0.6036 Y0.1388  
G01 X-0.6116 Y0.1429  
G01 X-0.6190 Y0.1483  
G01 X-0.6254 Y0.1547  
G01 X-0.6307 Y0.1620  
G01 X-0.6348 Y0.1701  
G01 X-0.6376 Y0.1787  
G01 X-0.6390 Y0.1876  
G01 X-0.6390 Y0.1967  
G01 X-0.6376 Y0.2056  
G01 X-0.6348 Y0.2142  
G01 X-0.6307 Y0.2223  
G01 X-0.6254 Y0.2296  
G01 X-0.6190 Y0.2360  
G01 X-0.6116 Y0.2413  
G01 X-0.6036 Y0.2454  
G01 X-0.5950 Y0.2482  
G01 X-0.5860 Y0.2496  
G01 X-0.4770 Y0.2496  
G01 X-0.4680 Y0.2482  
G01 X-0.4594 Y0.2454  
G01 X-0.4514 Y0.2413  
G01 X-0.4440 Y0.2360  
G01 X-0.4376 Y0.2296  
G01 X-0.4323 Y0.2223  
G01 X-0.4282 Y0.2142  
G01 X-0.4254 Y0.2056  
G01 X-0.4240 Y0.1967  
G01 X-0.4240 Y0.1876  
G00 Z0.0500  
G00 X-0.5743 Y0.3094  
G01 Z-0.0040 F10    
G01 X-0.5807 Y0.3030  F20    
G01 X-0.5880 Y0.2977  
G01 X-0.5960 Y0.2936  
G01 X-0.6046 Y0.2908  
G01 X-0.6136 Y0.2894  
G01 X-0.6226 Y0.2894  
G01 X-0.6316 Y0.2908  
G01 X-0.6402 Y0.2936  
G01 X-0.6482 Y0.2977  
G01 X-0.6556 Y0.3030  
G01 X-0.6620 Y0.3094  
G01 X-0.6673 Y0.3167  
G01 X-0.6714 Y0.3248  
G01 X-0.6742 Y0.3334  
G01 X-0.6756 Y0.3423  
G01 X-0.6756 Y0.3677  
G01 X-0.7467 Y0.3559  
G01 X-0.7611 Y0.3415  
G01 X-0.7889 Y0.3415  
G01 X-0.8085 Y0.3611  
G01 X-0.8085 Y0.3889  
G01 X-0.7889 Y0.4085  
G01 X-0.7611 Y0.4085  
G01 X-0.7548 Y0.4022  
G01 X-0.6756 Y0.4154  
G01 X-0.6756 Y0.4514  
G01 X-0.6742 Y0.4603  
G01 X-0.6714 Y0.4689  
G01 X-0.6673 Y0.4770  
G01 X-0.6620 Y0.4843  
G01 X-0.6556 Y0.4907  
G01 X-0.6482 Y0.4960  
G01 X-0.6402 Y0.5001  
G01 X-0.6316 Y0.5029  
G01 X-0.6226 Y0.5044  
G01 X-0.6136 Y0.5044  
G01 X-0.6046 Y0.5029  
G01 X-0.5960 Y0.5001  
G01 X-0.5880 Y0.4960  
G01 X-0.5818 Y0.4916  
G01 X-0.4585 Y0.6457  
G01 X-0.4585 Y0.6639  
G01 X-0.4389 Y0.6835  
G01 X-0.4111 Y0.6835  
G01 X-0.3915 Y0.6639  
G01 X-0.3915 Y0.6361  
G01 X-0.4111 Y0.6165  
G01 X-0.4217 Y0.6165  
G01 X-0.5606 Y0.4429  
G01 X-0.5606 Y0.3423  
G01 X-0.5620 Y0.3334  
G01 X-0.5648 Y0.3248  
G01 X-0.5689 Y0.3167  
G01 X-0.5743 Y0.3094  
G00 Z0.0500  
G00 X-0.8350 Y0.4817  
G01 Z-0.0040 F10    
G01 X-0.8389 Y0.4792  F20    
G01 X-0.8431 Y0.4774  
G01 X-0.8477 Y0.4765  
G01 X-1.1523 Y0.4765  
G01 X-1.1569 Y0.4774  
G01 X-1.1611 Y0.4792  
G01 X-1.1650 Y0.4817  
G01 X-1.1683 Y0.4850  
G01 X-1.1933 Y0.5100  
G01 X-1.1958 Y0.5139  
G01 X-1.1976 Y0.5181  
G01 X-1.1985 Y0.5227  
G01 X-1.1985 Y0.5761  
G01 X-1.2010 Y0.5786  
G01 X-1.2047 Y0.5841  
G01 X-1.2072 Y0.5902  
G01 X-1.2085 Y0.5967  
G01 X-1.2085 Y0.6033  
G01 X-1.2072 Y0.6098  
G01 X-1.2047 Y0.6159  
G01 X-1.2010 Y0.6214  
G01 X-1.1964 Y0.6260  
G01 X-1.1909 Y0.6297  
G01 X-1.1848 Y0.6322  
G01 X-1.1783 Y0.6335  
G01 X-1.1717 Y0.6335  
G01 X-1.1652 Y0.6322  
G01 X-1.1591 Y0.6297  
G01 X-1.1536 Y0.6260  
G01 X-1.1490 Y0.6214  
G01 X-1.1453 Y0.6159  
G01 X-1.1428 Y0.6098  
G01 X-1.1415 Y0.6033  
G01 X-1.1415 Y0.5967  
G01 X-1.1428 Y0.5902  
G01 X-1.1453 Y0.5841  
G01 X-1.1490 Y0.5786  
G01 X-1.1515 Y0.5761  
G01 X-1.1515 Y0.5347  
G01 X-1.1403 Y0.5235  
G01 X-0.8597 Y0.5235  
G01 X-0.8177 Y0.5656  
G01 X-0.8172 Y0.5662  
G01 X-0.8160 Y0.5672  
G01 X-0.8150 Y0.5683  
G01 X-0.8143 Y0.5687  
G01 X-0.8137 Y0.5693  
G01 X-0.8124 Y0.5700  
G01 X-0.8111 Y0.5708  
G01 X-0.8104 Y0.5711  
G01 X-0.4624 Y0.7700  
G01 X-0.4611 Y0.7708  
G01 X-0.4604 Y0.7711  
G01 X-0.4596 Y0.7716  
G01 X-0.4582 Y0.7720  
G01 X-0.4569 Y0.7726  
G01 X-0.4560 Y0.7728  
G01 X-0.4553 Y0.7730  
G01 X-0.4538 Y0.7732  
G01 X-0.4523 Y0.7735  
G01 X-0.4515 Y0.7735  
G01 X-0.4507 Y0.7736  
G01 X-0.4492 Y0.7735  
G01 X-0.3763 Y0.7735  
G01 X-0.3754 Y0.7736  
G01 X-0.3740 Y0.7735  
G01 X-0.3727 Y0.7735  
G01 X-0.3717 Y0.7733  
G01 X-0.3708 Y0.7732  
G01 X-0.3695 Y0.7729  
G01 X-0.3681 Y0.7726  
G01 X-0.3672 Y0.7722  
G01 X-0.1967 Y0.7235  
G01 X-0.0847 Y0.7235  
G01 X-0.0735 Y0.7347  
G01 X-0.0735 Y1.1765  
G01 X-0.1037 Y1.1765  
G01 X-0.1068 Y1.1704  
G01 X-0.1115 Y1.1640  
G01 X-0.1171 Y1.1583  
G01 X-0.1235 Y1.1537  
G01 X-0.1306 Y1.1501  
G01 X-0.1382 Y1.1476  
G01 X-0.1460 Y1.1464  
G01 X-0.1540 Y1.1464  
G01 X-0.1618 Y1.1476  
G01 X-0.1694 Y1.1501  
G01 X-0.1765 Y1.1537  
G01 X-0.1829 Y1.1583  
G01 X-0.1885 Y1.1640  
G01 X-0.1932 Y1.1704  
G01 X-0.1968 Y1.1775  
G01 X-0.1993 Y1.1850  
G01 X-0.2005 Y1.1929  
G01 X-0.2005 Y1.2008  
G01 X-0.1993 Y1.2087  
G01 X-0.1968 Y1.2162  
G01 X-0.1932 Y1.2233  
G01 X-0.1885 Y1.2297  
G01 X-0.1829 Y1.2354  
G01 X-0.1765 Y1.2400  
G01 X-0.1694 Y1.2437  
G01 X-0.1618 Y1.2461  
G01 X-0.1540 Y1.2474  
G01 X-0.1460 Y1.2474  
G01 X-0.1382 Y1.2461  
G01 X-0.1306 Y1.2437  
G01 X-0.1235 Y1.2400  
G01 X-0.1171 Y1.2354  
G01 X-0.1115 Y1.2297  
G01 X-0.1069 Y1.2235  
G01 X-0.0735 Y1.2235  
G01 X-0.0735 Y1.8153  
G01 X-0.1168 Y1.8586  
G01 X-0.1171 Y1.8583  
G01 X-0.1235 Y1.8537  
G01 X-0.1306 Y1.8501  
G01 X-0.1382 Y1.8476  
G01 X-0.1460 Y1.8464  
G01 X-0.1540 Y1.8464  
G01 X-0.1618 Y1.8476  
G01 X-0.1694 Y1.8501  
G01 X-0.1765 Y1.8537  
G01 X-0.1806 Y1.8567  
G01 X-0.1916 Y1.8530  
G01 X-0.1927 Y1.8525  
G01 X-0.1929 Y1.8525  
G01 X-0.1931 Y1.8524  
G01 X-0.1940 Y1.8522  
G01 X-0.1948 Y1.8520  
G01 X-0.1960 Y1.8518  
G01 X-0.1961 Y1.8518  
G01 X-0.3091 Y1.7576  
G01 X-0.3100 Y1.7567  
G01 X-0.3109 Y1.7561  
G01 X-0.3117 Y1.7555  
G01 X-0.3128 Y1.7549  
G01 X-0.4360 Y1.6728  
G01 X-0.4360 Y1.6712  
G01 X-0.4375 Y1.6636  
G01 X-0.4404 Y1.6565  
G01 X-0.4447 Y1.6501  
G01 X-0.4501 Y1.6447  
G01 X-0.4565 Y1.6404  
G01 X-0.4636 Y1.6375  
G01 X-0.4712 Y1.6360  
G01 X-0.4788 Y1.6360  
G01 X-0.4864 Y1.6375  
G01 X-0.4935 Y1.6404  
G01 X-0.4999 Y1.6447  
G01 X-0.5053 Y1.6501  
G01 X-0.5096 Y1.6565  
G01 X-0.5125 Y1.6636  
G01 X-0.5140 Y1.6712  
G01 X-0.5140 Y1.6788  
G01 X-0.5125 Y1.6864  
G01 X-0.5096 Y1.6935  
G01 X-0.5053 Y1.6999  
G01 X-0.4999 Y1.7053  
G01 X-0.4935 Y1.7096  
G01 X-0.4864 Y1.7125  
G01 X-0.4788 Y1.7140  
G01 X-0.4712 Y1.7140  
G01 X-0.4636 Y1.7125  
G01 X-0.4621 Y1.7119  
G01 X-0.3391 Y1.7939  
G01 X-0.1985 Y1.9110  
G01 X-0.1968 Y1.9162  
G01 X-0.1932 Y1.9233  
G01 X-0.1885 Y1.9297  
G01 X-0.1829 Y1.9354  
G01 X-0.1765 Y1.9400  
G01 X-0.1694 Y1.9437  
G01 X-0.1618 Y1.9461  
G01 X-0.1540 Y1.9474  
G01 X-0.1460 Y1.9474  
G01 X-0.1382 Y1.9461  
G01 X-0.1306 Y1.9437  
G01 X-0.1235 Y1.9400  
G01 X-0.1171 Y1.9354  
G01 X-0.1115 Y1.9297  
G01 X-0.1068 Y1.9233  
G01 X-0.1032 Y1.9162  
G01 X-0.1009 Y1.9091  
G01 X-0.0350 Y1.8433  
G01 X-0.0317 Y1.8400  
G01 X-0.0292 Y1.8361  
G01 X-0.0274 Y1.8319  
G01 X-0.0265 Y1.8273  
G01 X-0.0265 Y0.7227  
G01 X-0.0274 Y0.7181  
G01 X-0.0292 Y0.7139  
G01 X-0.0317 Y0.7100  
G01 X-0.0600 Y0.6817  
G01 X-0.0639 Y0.6792  
G01 X-0.0681 Y0.6774  
G01 X-0.0727 Y0.6765  
G01 X-0.1987 Y0.6765  
G01 X-0.1996 Y0.6764  
G01 X-0.2010 Y0.6765  
G01 X-0.2023 Y0.6765  
G01 X-0.2033 Y0.6767  
G01 X-0.2042 Y0.6768  
G01 X-0.2055 Y0.6771  
G01 X-0.2069 Y0.6774  
G01 X-0.2077 Y0.6778  
G01 X-0.3783 Y0.7265  
G01 X-0.4438 Y0.7265  
G01 X-0.7856 Y0.5312  
G01 X-0.8350 Y0.4817  
G00 Z0.0500  
G00 X-0.9490 Y0.5786  
G01 Z-0.0040 F10    
G01 X-0.9536 Y0.5740  F20    
G01 X-0.9591 Y0.5703  
G01 X-0.9652 Y0.5678  
G01 X-0.9717 Y0.5665  
G01 X-0.9783 Y0.5665  
G01 X-0.9848 Y0.5678  
G01 X-0.9909 Y0.5703  
G01 X-0.9964 Y0.5740  
G01 X-1.0010 Y0.5786  
G01 X-1.0047 Y0.5841  
G01 X-1.0072 Y0.5902  
G01 X-1.0085 Y0.5967  
G01 X-1.0085 Y0.6033  
G01 X-1.0072 Y0.6098  
G01 X-1.0047 Y0.6159  
G01 X-1.0010 Y0.6214  
G01 X-0.9964 Y0.6260  
G01 X-0.9909 Y0.6297  
G01 X-0.9848 Y0.6322  
G01 X-0.9783 Y0.6335  
G01 X-0.9717 Y0.6335  
G01 X-0.9652 Y0.6322  
G01 X-0.9591 Y0.6297  
G01 X-0.9536 Y0.6260  
G01 X-0.9490 Y0.6214  
G01 X-0.9453 Y0.6159  
G01 X-0.9428 Y0.6098  
G01 X-0.9415 Y0.6033  
G01 X-0.9415 Y0.5967  
G01 X-0.9428 Y0.5902  
G01 X-0.9453 Y0.5841  
G01 X-0.9490 Y0.5786  
G00 Z0.0500  
G00 X-1.0490 Y0.5786  
G01 Z-0.0040 F10    
G01 X-1.0536 Y0.5740  F20    
G01 X-1.0591 Y0.5703  
G01 X-1.0652 Y0.5678  
G01 X-1.0717 Y0.5665  
G01 X-1.0783 Y0.5665  
G01 X-1.0848 Y0.5678  
G01 X-1.0909 Y0.5703  
G01 X-1.0964 Y0.5740  
G01 X-1.1010 Y0.5786  
G01 X-1.1047 Y0.5841  
G01 X-1.1072 Y0.5902  
G01 X-1.1085 Y0.5967  
G01 X-1.1085 Y0.6033  
G01 X-1.1072 Y0.6098  
G01 X-1.1047 Y0.6159  
G01 X-1.1010 Y0.6214  
G01 X-1.0985 Y0.6239  
G01 X-1.0985 Y0.6903  
G01 X-1.1933 Y0.7850  
G01 X-1.1958 Y0.7889  
G01 X-1.1976 Y0.7931  
G01 X-1.1985 Y0.7977  
G01 X-1.1985 Y0.8761  
G01 X-1.2010 Y0.8786  
G01 X-1.2047 Y0.8841  
G01 X-1.2072 Y0.8902  
G01 X-1.2085 Y0.8967  
G01 X-1.2085 Y0.9033  
G01 X-1.2072 Y0.9098  
G01 X-1.2047 Y0.9159  
G01 X-1.2010 Y0.9214  
G01 X-1.1964 Y0.9260  
G01 X-1.1909 Y0.9297  
G01 X-1.1848 Y0.9322  
G01 X-1.1783 Y0.9335  
G01 X-1.1717 Y0.9335  
G01 X-1.1652 Y0.9322  
G01 X-1.1591 Y0.9297  
G01 X-1.1536 Y0.9260  
G01 X-1.1490 Y0.9214  
G01 X-1.1453 Y0.9159  
G01 X-1.1428 Y0.9098  
G01 X-1.1415 Y0.9033  
G01 X-1.1415 Y0.8967  
G01 X-1.1428 Y0.8902  
G01 X-1.1453 Y0.8841  
G01 X-1.1490 Y0.8786  
G01 X-1.1515 Y0.8761  
G01 X-1.1515 Y0.8097  
G01 X-1.0750 Y0.7332  
G01 X-1.0400 Y0.7683  
G01 X-1.0361 Y0.7708  
G01 X-1.0319 Y0.7726  
G01 X-1.0273 Y0.7735  
G01 X-0.9347 Y0.7735  
G01 X-0.8965 Y0.8118  
G01 X-0.8551 Y0.9978  
G01 X-0.8565 Y0.9992  
G01 X-0.8609 Y1.0058  
G01 X-0.8639 Y1.0132  
G01 X-0.8655 Y1.0210  
G01 X-0.8655 Y1.0290  
G01 X-0.8639 Y1.0368  
G01 X-0.8609 Y1.0442  
G01 X-0.8565 Y1.0508  
G01 X-0.8508 Y1.0565  
G01 X-0.8442 Y1.0609  
G01 X-0.8368 Y1.0639  
G01 X-0.8290 Y1.0655  
G01 X-0.8210 Y1.0655  
G01 X-0.8132 Y1.0639  
G01 X-0.8058 Y1.0609  
G01 X-0.7992 Y1.0565  
G01 X-0.7935 Y1.0508  
G01 X-0.7891 Y1.0442  
G01 X-0.7861 Y1.0368  
G01 X-0.7845 Y1.0290  
G01 X-0.7845 Y1.0210  
G01 X-0.7861 Y1.0132  
G01 X-0.7891 Y1.0058  
G01 X-0.7935 Y0.9992  
G01 X-0.7992 Y0.9935  
G01 X-0.8058 Y0.9891  
G01 X-0.8092 Y0.9877  
G01 X-0.8471 Y0.8172  
G01 X-0.7935 Y0.8039  
G01 X-0.7889 Y0.8085  
G01 X-0.7611 Y0.8085  
G01 X-0.7415 Y0.7889  
G01 X-0.7415 Y0.7611  
G01 X-0.7611 Y0.7415  
G01 X-0.7889 Y0.7415  
G01 X-0.8059 Y0.7585  
G01 X-0.8678 Y0.7740  
G01 X-0.9067 Y0.7350  
G01 X-0.9100 Y0.7317  
G01 X-0.9139 Y0.7292  
G01 X-0.9181 Y0.7274  
G01 X-0.9227 Y0.7265  
G01 X-1.0153 Y0.7265  
G01 X-1.0515 Y0.6903  
G01 X-1.0515 Y0.6239  
G01 X-1.0490 Y0.6214  
G01 X-1.0453 Y0.6159  
G01 X-1.0428 Y0.6098  
G01 X-1.0415 Y0.6033  
G01 X-1.0415 Y0.5967  
G01 X-1.0428 Y0.5902  
G01 X-1.0453 Y0.5841  
G01 X-1.0490 Y0.5786  
G00 Z0.0500  
G00 X-1.2490 Y0.5786  
G01 Z-0.0040 F10    
G01 X-1.2536 Y0.5740  F20    
G01 X-1.2591 Y0.5703  
G01 X-1.2652 Y0.5678  
G01 X-1.2717 Y0.5665  
G01 X-1.2783 Y0.5665  
G01 X-1.2848 Y0.5678  
G01 X-1.2909 Y0.5703  
G01 X-1.2964 Y0.5740  
G01 X-1.3010 Y0.5786  
G01 X-1.3047 Y0.5841  
G01 X-1.3072 Y0.5902  
G01 X-1.3085 Y0.5967  
G01 X-1.3085 Y0.6033  
G01 X-1.3072 Y0.6098  
G01 X-1.3067 Y0.6109  
G01 X-1.4704 Y0.9382  
G01 X-1.4708 Y0.9389  
G01 X-1.4714 Y0.9402  
G01 X-1.4721 Y0.9416  
G01 X-1.4723 Y0.9424  
G01 X-1.4726 Y0.9431  
G01 X-1.4729 Y0.9446  
G01 X-1.4733 Y0.9460  
G01 X-1.4733 Y0.9469  
G01 X-1.4735 Y0.9477  
G01 X-1.4735 Y0.9492  
G01 X-1.4736 Y0.9506  
G01 X-1.4735 Y0.9515  
G01 X-1.4735 Y1.4498  
G01 X-1.4735 Y1.4519  
G01 X-1.4735 Y1.4521  
G01 X-1.4735 Y1.4523  
G01 X-1.4731 Y1.4544  
G01 X-1.3787 Y1.9735  
G01 X-1.3890 Y1.9838  
G01 X-1.3890 Y2.0162  
G01 X-1.3823 Y2.0228  
G01 X-1.4350 Y2.1821  
G01 X-1.4357 Y2.1822  
G01 X-1.4425 Y2.1844  
G01 X-1.4488 Y2.1877  
G01 X-1.4546 Y2.1919  
G01 X-1.4597 Y2.1969  
G01 X-1.4639 Y2.2027  
G01 X-1.4672 Y2.2091  
G01 X-1.4694 Y2.2159  
G01 X-1.4705 Y2.2230  
G01 X-1.4705 Y2.2302  
G01 X-1.4694 Y2.2372  
G01 X-1.4672 Y2.2440  
G01 X-1.4639 Y2.2504  
G01 X-1.4597 Y2.2562  
G01 X-1.4546 Y2.2613  
G01 X-1.4488 Y2.2655  
G01 X-1.4425 Y2.2687  
G01 X-1.4357 Y2.2710  
G01 X-1.4286 Y2.2721  
G01 X-1.4214 Y2.2721  
G01 X-1.4143 Y2.2710  
G01 X-1.4075 Y2.2687  
G01 X-1.4012 Y2.2655  
G01 X-1.3954 Y2.2613  
G01 X-1.3903 Y2.2562  
G01 X-1.3861 Y2.2504  
G01 X-1.3828 Y2.2440  
G01 X-1.3806 Y2.2372  
G01 X-1.3795 Y2.2302  
G01 X-1.3795 Y2.2230  
G01 X-1.3806 Y2.2159  
G01 X-1.3828 Y2.2091  
G01 X-1.3861 Y2.2027  
G01 X-1.3903 Y2.1969  
G01 X-1.3904 Y2.1968  
G01 X-1.3382 Y2.0390  
G01 X-1.3338 Y2.0390  
G01 X-1.3110 Y2.0162  
G01 X-1.3110 Y1.9838  
G01 X-1.3331 Y1.9618  
G01 X-1.4265 Y1.4479  
G01 X-1.4265 Y0.9555  
G01 X-1.2647 Y0.6320  
G01 X-1.2591 Y0.6297  
G01 X-1.2536 Y0.6260  
G01 X-1.2490 Y0.6214  
G01 X-1.2453 Y0.6159  
G01 X-1.2428 Y0.6098  
G01 X-1.2415 Y0.6033  
G01 X-1.2415 Y0.5967  
G01 X-1.2428 Y0.5902  
G01 X-1.2453 Y0.5841  
G01 X-1.2490 Y0.5786  
G00 Z0.0500  
G00 X-1.2490 Y0.8786  
G01 Z-0.0040 F10    
G01 X-1.2536 Y0.8740  F20    
G01 X-1.2591 Y0.8703  
G01 X-1.2652 Y0.8678  
G01 X-1.2717 Y0.8665  
G01 X-1.2783 Y0.8665  
G01 X-1.2848 Y0.8678  
G01 X-1.2909 Y0.8703  
G01 X-1.2964 Y0.8740  
G01 X-1.3010 Y0.8786  
G01 X-1.3047 Y0.8841  
G01 X-1.3072 Y0.8902  
G01 X-1.3085 Y0.8967  
G01 X-1.3085 Y0.9033  
G01 X-1.3072 Y0.9098  
G01 X-1.3047 Y0.9159  
G01 X-1.3010 Y0.9214  
G01 X-1.2964 Y0.9260  
G01 X-1.2909 Y0.9297  
G01 X-1.2848 Y0.9322  
G01 X-1.2783 Y0.9335  
G01 X-1.2717 Y0.9335  
G01 X-1.2652 Y0.9322  
G01 X-1.2591 Y0.9297  
G01 X-1.2536 Y0.9260  
G01 X-1.2490 Y0.9214  
G01 X-1.2453 Y0.9159  
G01 X-1.2428 Y0.9098  
G01 X-1.2415 Y0.9033  
G01 X-1.2415 Y0.8967  
G01 X-1.2428 Y0.8902  
G01 X-1.2453 Y0.8841  
G01 X-1.2490 Y0.8786  
G00 Z0.0500  
G00 X-1.1010 Y0.8786  
G01 Z-0.0040 F10    
G01 X-1.1047 Y0.8841  F20    
G01 X-1.1072 Y0.8902  
G01 X-1.1085 Y0.8967  
G01 X-1.1085 Y0.9033  
G01 X-1.1072 Y0.9098  
G01 X-1.1047 Y0.9159  
G01 X-1.1010 Y0.9214  
G01 X-1.0964 Y0.9260  
G01 X-1.0909 Y0.9297  
G01 X-1.0880 Y0.9309  
G01 X-1.0591 Y1.0031  
G01 X-1.0609 Y1.0058  
G01 X-1.0611 Y1.0064  
G01 X-1.3767 Y1.0515  
G01 X-1.3773 Y1.0515  
G01 X-1.3790 Y1.0518  
G01 X-1.3806 Y1.0521  
G01 X-1.3812 Y1.0523  
G01 X-1.3819 Y1.0524  
G01 X-1.3834 Y1.0530  
G01 X-1.3850 Y1.0536  
G01 X-1.3855 Y1.0539  
G01 X-1.3861 Y1.0542  
G01 X-1.3875 Y1.0551  
G01 X-1.3890 Y1.0560  
G01 X-1.3894 Y1.0564  
G01 X-1.3900 Y1.0567  
G01 X-1.3912 Y1.0579  
G01 X-1.3924 Y1.0590  
G01 X-1.3928 Y1.0596  
G01 X-1.3933 Y1.0600  
G01 X-1.3942 Y1.0614  
G01 X-1.3952 Y1.0628  
G01 X-1.3955 Y1.0633  
G01 X-1.3958 Y1.0639  
G01 X-1.3965 Y1.0654  
G01 X-1.3972 Y1.0669  
G01 X-1.3974 Y1.0675  
G01 X-1.3976 Y1.0681  
G01 X-1.3979 Y1.0698  
G01 X-1.3983 Y1.0714  
G01 X-1.3984 Y1.0721  
G01 X-1.3985 Y1.0727  
G01 X-1.3985 Y1.0744  
G01 X-1.3986 Y1.0760  
G01 X-1.3985 Y1.0767  
G01 X-1.3985 Y1.4237  
G01 X-1.3986 Y1.4248  
G01 X-1.3985 Y1.4261  
G01 X-1.3985 Y1.4273  
G01 X-1.3983 Y1.4284  
G01 X-1.3982 Y1.4294  
G01 X-1.3978 Y1.4306  
G01 X-1.3976 Y1.4319  
G01 X-1.3972 Y1.4328  
G01 X-1.2731 Y1.8549  
G01 X-1.2284 Y2.1910  
G01 X-1.2296 Y2.1919  
G01 X-1.2347 Y2.1969  
G01 X-1.2389 Y2.2027  
G01 X-1.2422 Y2.2091  
G01 X-1.2444 Y2.2159  
G01 X-1.2455 Y2.2230  
G01 X-1.2455 Y2.2302  
G01 X-1.2444 Y2.2372  
G01 X-1.2422 Y2.2440  
G01 X-1.2389 Y2.2504  
G01 X-1.2347 Y2.2562  
G01 X-1.2296 Y2.2613  
G01 X-1.2238 Y2.2655  
G01 X-1.2175 Y2.2687  
G01 X-1.2107 Y2.2710  
G01 X-1.2036 Y2.2721  
G01 X-1.1964 Y2.2721  
G01 X-1.1893 Y2.2710  
G01 X-1.1825 Y2.2687  
G01 X-1.1762 Y2.2655  
G01 X-1.1704 Y2.2613  
G01 X-1.1653 Y2.2562  
G01 X-1.1643 Y2.2548  
G01 X-1.0542 Y2.2731  
G01 X-1.0523 Y2.2735  
G01 X-1.0519 Y2.2735  
G01 X-1.0516 Y2.2736  
G01 X-1.0496 Y2.2735  
G01 X-0.8227 Y2.2735  
G01 X-0.8181 Y2.2726  
G01 X-0.8139 Y2.2708  
G01 X-0.8100 Y2.2683  
G01 X-0.8067 Y2.2650  
G01 X-0.8042 Y2.2611  
G01 X-0.8024 Y2.2569  
G01 X-0.8015 Y2.2523  
G01 X-0.8015 Y2.1023  
G01 X-0.8015 Y2.1000  
G01 X-0.8015 Y2.0977  
G01 X-0.8019 Y2.0955  
G01 X-0.8024 Y2.0931  
G01 X-0.8208 Y2.0010  
G01 X-0.8197 Y1.9999  
G01 X-0.8154 Y1.9935  
G01 X-0.8125 Y1.9864  
G01 X-0.8110 Y1.9788  
G01 X-0.8110 Y1.9712  
G01 X-0.8125 Y1.9636  
G01 X-0.8154 Y1.9565  
G01 X-0.8197 Y1.9501  
G01 X-0.8251 Y1.9447  
G01 X-0.8315 Y1.9404  
G01 X-0.8386 Y1.9375  
G01 X-0.8429 Y1.9366  
G01 X-0.8902 Y1.8420  
G01 X-0.8195 Y1.8279  
G01 X-0.8139 Y1.8335  
G01 X-0.7861 Y1.8335  
G01 X-0.7665 Y1.8139  
G01 X-0.7665 Y1.7861  
G01 X-0.7861 Y1.7665  
G01 X-0.8139 Y1.7665  
G01 X-0.8293 Y1.7819  
G01 X-0.9055 Y1.7971  
G01 X-0.9111 Y1.7915  
G01 X-0.9389 Y1.7915  
G01 X-0.9585 Y1.8111  
G01 X-0.9585 Y1.8389  
G01 X-0.9389 Y1.8585  
G01 X-0.9345 Y1.8585  
G01 X-0.8850 Y1.9576  
G01 X-0.8875 Y1.9636  
G01 X-0.8890 Y1.9712  
G01 X-0.8890 Y1.9788  
G01 X-0.8875 Y1.9864  
G01 X-0.8846 Y1.9935  
G01 X-0.8803 Y1.9999  
G01 X-0.8749 Y2.0053  
G01 X-0.8685 Y2.0096  
G01 X-0.8669 Y2.0102  
G01 X-0.8485 Y2.1023  
G01 X-0.8485 Y2.2265  
G01 X-1.0481 Y2.2265  
G01 X-1.1583 Y2.2081  
G01 X-1.1611 Y2.2027  
G01 X-1.1653 Y2.1969  
G01 X-1.1704 Y2.1919  
G01 X-1.1762 Y2.1877  
G01 X-1.1818 Y2.1848  
G01 X-1.2266 Y1.8474  
G01 X-1.2268 Y1.8456  
G01 X-1.2269 Y1.8451  
G01 X-1.2270 Y1.8446  
G01 X-1.2276 Y1.8429  
G01 X-1.3515 Y1.4216  
G01 X-1.3515 Y1.0954  
G01 X-1.0543 Y1.0529  
G01 X-1.0508 Y1.0565  
G01 X-1.0442 Y1.0609  
G01 X-1.0368 Y1.0639  
G01 X-1.0312 Y1.0651  
G01 X-0.9967 Y1.1342  
G01 X-0.9964 Y1.1350  
G01 X-0.9956 Y1.1363  
G01 X-0.9950 Y1.1376  
G01 X-0.9945 Y1.1382  
G01 X-0.9940 Y1.1390  
G01 X-0.9931 Y1.1401  
G01 X-0.9921 Y1.1412  
G01 X-0.9915 Y1.1418  
G01 X-0.9910 Y1.1424  
G01 X-0.9898 Y1.1433  
G01 X-0.9886 Y1.1443  
G01 X-0.9879 Y1.1447  
G01 X-0.8904 Y1.2178  
G01 X-0.8900 Y1.2182  
G01 X-0.8886 Y1.2192  
G01 X-0.8872 Y1.2202  
G01 X-0.8867 Y1.2205  
G01 X-0.8862 Y1.2208  
G01 X-0.8846 Y1.2215  
G01 X-0.8831 Y1.2222  
G01 X-0.8825 Y1.2223  
G01 X-0.8819 Y1.2226  
G01 X-0.8802 Y1.2229  
G01 X-0.8786 Y1.2233  
G01 X-0.8780 Y1.2234  
G01 X-0.7692 Y1.2451  
G01 X-0.7558 Y1.2986  
G01 X-0.7565 Y1.2992  
G01 X-0.7609 Y1.3058  
G01 X-0.7639 Y1.3132  
G01 X-0.7655 Y1.3210  
G01 X-0.7655 Y1.3290  
G01 X-0.7639 Y1.3368  
G01 X-0.7609 Y1.3442  
G01 X-0.7565 Y1.3508  
G01 X-0.7508 Y1.3565  
G01 X-0.7442 Y1.3609  
G01 X-0.7368 Y1.3639  
G01 X-0.7290 Y1.3655  
G01 X-0.7210 Y1.3655  
G01 X-0.7132 Y1.3639  
G01 X-0.7058 Y1.3609  
G01 X-0.6992 Y1.3565  
G01 X-0.6935 Y1.3508  
G01 X-0.6891 Y1.3442  
G01 X-0.6861 Y1.3368  
G01 X-0.6845 Y1.3290  
G01 X-0.6845 Y1.3210  
G01 X-0.6861 Y1.3132  
G01 X-0.6891 Y1.3058  
G01 X-0.6935 Y1.2992  
G01 X-0.6992 Y1.2935  
G01 X-0.7058 Y1.2891  
G01 X-0.7102 Y1.2873  
G01 X-0.7271 Y1.2199  
G01 X-0.7274 Y1.2182  
G01 X-0.7276 Y1.2176  
G01 X-0.7278 Y1.2171  
G01 X-0.7285 Y1.2155  
G01 X-0.7292 Y1.2139  
G01 X-0.7295 Y1.2134  
G01 X-0.7297 Y1.2129  
G01 X-0.7308 Y1.2115  
G01 X-0.7317 Y1.2100  
G01 X-0.7321 Y1.2096  
G01 X-0.7325 Y1.2091  
G01 X-0.7338 Y1.2080  
G01 X-0.7350 Y1.2068  
G01 X-0.7355 Y1.2064  
G01 X-0.7359 Y1.2060  
G01 X-0.7374 Y1.2051  
G01 X-0.7388 Y1.2042  
G01 X-0.7394 Y1.2040  
G01 X-0.7399 Y1.2037  
G01 X-0.7415 Y1.2031  
G01 X-0.7431 Y1.2024  
G01 X-0.7437 Y1.2023  
G01 X-0.7443 Y1.2021  
G01 X-0.7460 Y1.2018  
G01 X-0.8652 Y1.1780  
G01 X-0.9565 Y1.1095  
G01 X-0.9891 Y1.0442  
G01 X-0.9861 Y1.0368  
G01 X-0.9845 Y1.0290  
G01 X-0.9845 Y1.0210  
G01 X-0.9861 Y1.0132  
G01 X-0.9891 Y1.0058  
G01 X-0.9935 Y0.9992  
G01 X-0.9992 Y0.9935  
G01 X-1.0058 Y0.9891  
G01 X-1.0132 Y0.9861  
G01 X-1.0154 Y0.9856  
G01 X-1.0443 Y0.9134  
G01 X-1.0428 Y0.9098  
G01 X-1.0415 Y0.9033  
G01 X-1.0415 Y0.8967  
G01 X-1.0428 Y0.8902  
G01 X-1.0453 Y0.8841  
G01 X-1.0490 Y0.8786  
G01 X-1.0536 Y0.8740  
G01 X-1.0591 Y0.8703  
G01 X-1.0652 Y0.8678  
G01 X-1.0717 Y0.8665  
G01 X-1.0783 Y0.8665  
G01 X-1.0848 Y0.8678  
G01 X-1.0909 Y0.8703  
G01 X-1.0964 Y0.8740  
G01 X-1.1010 Y0.8786  
G00 Z0.0500  
G00 X-1.0010 Y0.8786  
G01 Z-0.0040 F10    
G01 X-1.0047 Y0.8841  F20    
G01 X-1.0072 Y0.8902  
G01 X-1.0085 Y0.8967  
G01 X-1.0085 Y0.9033  
G01 X-1.0072 Y0.9098  
G01 X-1.0047 Y0.9159  
G01 X-1.0010 Y0.9214  
G01 X-0.9964 Y0.9260  
G01 X-0.9909 Y0.9297  
G01 X-0.9848 Y0.9322  
G01 X-0.9783 Y0.9335  
G01 X-0.9717 Y0.9335  
G01 X-0.9652 Y0.9322  
G01 X-0.9591 Y0.9297  
G01 X-0.9536 Y0.9260  
G01 X-0.9490 Y0.9214  
G01 X-0.9453 Y0.9159  
G01 X-0.9428 Y0.9098  
G01 X-0.9415 Y0.9033  
G01 X-0.9415 Y0.8967  
G01 X-0.9428 Y0.8902  
G01 X-0.9453 Y0.8841  
G01 X-0.9490 Y0.8786  
G01 X-0.9536 Y0.8740  
G01 X-0.9591 Y0.8703  
G01 X-0.9652 Y0.8678  
G01 X-0.9717 Y0.8665  
G01 X-0.9783 Y0.8665  
G01 X-0.9848 Y0.8678  
G01 X-0.9909 Y0.8703  
G01 X-0.9964 Y0.8740  
G01 X-1.0010 Y0.8786  
G00 Z0.0500  
G00 X-0.9508 Y0.9935  
G01 Z-0.0040 F10    
G01 X-0.9565 Y0.9992  F20    
G01 X-0.9609 Y1.0058  
G01 X-0.9639 Y1.0132  
G01 X-0.9655 Y1.0210  
G01 X-0.9655 Y1.0290  
G01 X-0.9639 Y1.0368  
G01 X-0.9609 Y1.0442  
G01 X-0.9565 Y1.0508  
G01 X-0.9508 Y1.0565  
G01 X-0.9442 Y1.0609  
G01 X-0.9368 Y1.0639  
G01 X-0.9312 Y1.0651  
G01 X-0.8964 Y1.1348  
G01 X-0.8958 Y1.1361  
G01 X-0.8954 Y1.1368  
G01 X-0.8950 Y1.1376  
G01 X-0.8941 Y1.1387  
G01 X-0.8933 Y1.1400  
G01 X-0.8927 Y1.1406  
G01 X-0.8921 Y1.1412  
G01 X-0.8910 Y1.1422  
G01 X-0.8900 Y1.1433  
G01 X-0.8893 Y1.1437  
G01 X-0.8886 Y1.1443  
G01 X-0.8874 Y1.1450  
G01 X-0.8861 Y1.1458  
G01 X-0.8854 Y1.1461  
G01 X-0.8846 Y1.1466  
G01 X-0.8832 Y1.1470  
G01 X-0.8819 Y1.1476  
G01 X-0.8810 Y1.1478  
G01 X-0.8802 Y1.1480  
G01 X-0.8788 Y1.1482  
G01 X-0.8773 Y1.1485  
G01 X-0.8765 Y1.1485  
G01 X-0.8756 Y1.1486  
G01 X-0.8742 Y1.1485  
G01 X-0.6515 Y1.1485  
G01 X-0.6506 Y1.1486  
G01 X-0.6492 Y1.1485  
G01 X-0.6477 Y1.1485  
G01 X-0.6469 Y1.1483  
G01 X-0.6460 Y1.1483  
G01 X-0.6446 Y1.1479  
G01 X-0.6431 Y1.1476  
G01 X-0.6424 Y1.1473  
G01 X-0.6416 Y1.1471  
G01 X-0.6402 Y1.1464  
G01 X-0.6389 Y1.1458  
G01 X-0.6382 Y1.1454  
G01 X-0.6374 Y1.1450  
G01 X-0.6363 Y1.1441  
G01 X-0.6350 Y1.1433  
G01 X-0.6344 Y1.1427  
G01 X-0.6338 Y1.1421  
G01 X-0.6328 Y1.1410  
G01 X-0.6317 Y1.1400  
G01 X-0.6313 Y1.1393  
G01 X-0.6307 Y1.1386  
G01 X-0.6300 Y1.1374  
G01 X-0.6292 Y1.1361  
G01 X-0.6289 Y1.1354  
G01 X-0.6284 Y1.1346  
G01 X-0.6280 Y1.1332  
G01 X-0.6274 Y1.1319  
G01 X-0.6272 Y1.1310  
G01 X-0.5331 Y0.8485  
G01 X-0.3508 Y0.8485  
G01 X-0.3494 Y0.8486  
G01 X-0.3485 Y0.8485  
G01 X-0.3477 Y0.8485  
G01 X-0.3462 Y0.8482  
G01 X-0.1934 Y0.8291  
G01 X-0.1932 Y0.8296  
G01 X-0.1885 Y0.8360  
G01 X-0.1829 Y0.8417  
G01 X-0.1765 Y0.8463  
G01 X-0.1735 Y0.8479  
G01 X-0.1735 Y0.9553  
G01 X-0.1765 Y0.9568  
G01 X-0.1829 Y0.9615  
G01 X-0.1885 Y0.9671  
G01 X-0.1932 Y0.9735  
G01 X-0.1968 Y0.9806  
G01 X-0.1993 Y0.9882  
G01 X-0.2005 Y0.9960  
G01 X-0.2005 Y1.0040  
G01 X-0.1993 Y1.0118  
G01 X-0.1968 Y1.0194  
G01 X-0.1932 Y1.0265  
G01 X-0.1885 Y1.0329  
G01 X-0.1829 Y1.0385  
G01 X-0.1765 Y1.0432  
G01 X-0.1694 Y1.0468  
G01 X-0.1618 Y1.0493  
G01 X-0.1540 Y1.0505  
G01 X-0.1460 Y1.0505  
G01 X-0.1382 Y1.0493  
G01 X-0.1306 Y1.0468  
G01 X-0.1235 Y1.0432  
G01 X-0.1171 Y1.0385  
G01 X-0.1115 Y1.0329  
G01 X-0.1068 Y1.0265  
G01 X-0.1032 Y1.0194  
G01 X-0.1007 Y1.0118  
G01 X-0.0995 Y1.0040  
G01 X-0.0995 Y0.9960  
G01 X-0.1007 Y0.9882  
G01 X-0.1032 Y0.9806  
G01 X-0.1068 Y0.9735  
G01 X-0.1115 Y0.9671  
G01 X-0.1171 Y0.9615  
G01 X-0.1235 Y0.9568  
G01 X-0.1265 Y0.9553  
G01 X-0.1265 Y0.8479  
G01 X-0.1235 Y0.8463  
G01 X-0.1171 Y0.8417  
G01 X-0.1115 Y0.8360  
G01 X-0.1068 Y0.8296  
G01 X-0.1032 Y0.8225  
G01 X-0.1007 Y0.8150  
G01 X-0.0995 Y0.8071  
G01 X-0.0995 Y0.7992  
G01 X-0.1007 Y0.7913  
G01 X-0.1032 Y0.7838  
G01 X-0.1068 Y0.7767  
G01 X-0.1115 Y0.7703  
G01 X-0.1171 Y0.7646  
G01 X-0.1235 Y0.7600  
G01 X-0.1306 Y0.7563  
G01 X-0.1382 Y0.7539  
G01 X-0.1460 Y0.7526  
G01 X-0.1540 Y0.7526  
G01 X-0.1618 Y0.7539  
G01 X-0.1694 Y0.7563  
G01 X-0.1765 Y0.7600  
G01 X-0.1829 Y0.7646  
G01 X-0.1885 Y0.7703  
G01 X-0.1932 Y0.7767  
G01 X-0.1959 Y0.7821  
G01 X-0.3515 Y0.8015  
G01 X-0.5485 Y0.8015  
G01 X-0.5494 Y0.8014  
G01 X-0.5508 Y0.8015  
G01 X-0.5523 Y0.8015  
G01 X-0.5531 Y0.8017  
G01 X-0.5540 Y0.8017  
G01 X-0.5554 Y0.8021  
G01 X-0.5569 Y0.8024  
G01 X-0.5576 Y0.8027  
G01 X-0.5584 Y0.8029  
G01 X-0.5598 Y0.8036  
G01 X-0.5611 Y0.8042  
G01 X-0.5618 Y0.8046  
G01 X-0.5626 Y0.8050  
G01 X-0.5637 Y0.8059  
G01 X-0.5650 Y0.8067  
G01 X-0.5656 Y0.8073  
G01 X-0.5662 Y0.8079  
G01 X-0.5672 Y0.8090  
G01 X-0.5683 Y0.8100  
G01 X-0.5687 Y0.8107  
G01 X-0.5693 Y0.8114  
G01 X-0.5700 Y0.8126  
G01 X-0.5708 Y0.8139  
G01 X-0.5711 Y0.8146  
G01 X-0.5716 Y0.8154  
G01 X-0.5720 Y0.8168  
G01 X-0.5726 Y0.8181  
G01 X-0.5728 Y0.8190  
G01 X-0.6669 Y1.1015  
G01 X-0.8605 Y1.1015  
G01 X-0.8891 Y1.0442  
G01 X-0.8861 Y1.0368  
G01 X-0.8845 Y1.0290  
G01 X-0.8845 Y1.0210  
G01 X-0.8861 Y1.0132  
G01 X-0.8891 Y1.0058  
G01 X-0.8935 Y0.9992  
G01 X-0.8992 Y0.9935  
G01 X-0.9058 Y0.9891  
G01 X-0.9132 Y0.9861  
G01 X-0.9210 Y0.9845  
G01 X-0.9290 Y0.9845  
G01 X-0.9368 Y0.9861  
G01 X-0.9442 Y0.9891  
G01 X-0.9508 Y0.9935  
G00 Z0.0500  
G00 X-0.7508 Y0.9935  
G01 Z-0.0040 F10    
G01 X-0.7565 Y0.9992  F20    
G01 X-0.7609 Y1.0058  
G01 X-0.7639 Y1.0132  
G01 X-0.7655 Y1.0210  
G01 X-0.7655 Y1.0290  
G01 X-0.7639 Y1.0368  
G01 X-0.7609 Y1.0442  
G01 X-0.7565 Y1.0508  
G01 X-0.7508 Y1.0565  
G01 X-0.7442 Y1.0609  
G01 X-0.7368 Y1.0639  
G01 X-0.7290 Y1.0655  
G01 X-0.7210 Y1.0655  
G01 X-0.7132 Y1.0639  
G01 X-0.7058 Y1.0609  
G01 X-0.6992 Y1.0565  
G01 X-0.6935 Y1.0508  
G01 X-0.6891 Y1.0442  
G01 X-0.6861 Y1.0368  
G01 X-0.6845 Y1.0290  
G01 X-0.6845 Y1.0210  
G01 X-0.6861 Y1.0132  
G01 X-0.6891 Y1.0058  
G01 X-0.6935 Y0.9992  
G01 X-0.6992 Y0.9935  
G01 X-0.7015 Y0.9920  
G01 X-0.7015 Y0.9805  
G01 X-0.6905 Y0.9585  
G01 X-0.6861 Y0.9585  
G01 X-0.6665 Y0.9389  
G01 X-0.6665 Y0.9111  
G01 X-0.6861 Y0.8915  
G01 X-0.7139 Y0.8915  
G01 X-0.7335 Y0.9111  
G01 X-0.7335 Y0.9389  
G01 X-0.7333 Y0.9391  
G01 X-0.7454 Y0.9632  
G01 X-0.7458 Y0.9639  
G01 X-0.7464 Y0.9652  
G01 X-0.7471 Y0.9666  
G01 X-0.7473 Y0.9674  
G01 X-0.7476 Y0.9681  
G01 X-0.7479 Y0.9696  
G01 X-0.7483 Y0.9710  
G01 X-0.7483 Y0.9719  
G01 X-0.7485 Y0.9727  
G01 X-0.7485 Y0.9742  
G01 X-0.7486 Y0.9756  
G01 X-0.7485 Y0.9765  
G01 X-0.7485 Y0.9920  
G01 X-0.7508 Y0.9935  
G00 Z0.0500  
G00 X-0.7935 Y1.2992  
G01 Z-0.0040 F10    
G01 X-0.7992 Y1.2935  F20    
G01 X-0.8058 Y1.2891  
G01 X-0.8132 Y1.2861  
G01 X-0.8210 Y1.2845  
G01 X-0.8290 Y1.2845  
G01 X-0.8368 Y1.2861  
G01 X-0.8442 Y1.2891  
G01 X-0.8508 Y1.2935  
G01 X-0.8565 Y1.2992  
G01 X-0.8609 Y1.3058  
G01 X-0.8639 Y1.3132  
G01 X-0.8655 Y1.3210  
G01 X-0.8655 Y1.3290  
G01 X-0.8639 Y1.3368  
G01 X-0.8609 Y1.3442  
G01 X-0.8565 Y1.3508  
G01 X-0.8508 Y1.3565  
G01 X-0.8442 Y1.3609  
G01 X-0.8398 Y1.3627  
G01 X-0.8233 Y1.4287  
G01 X-0.8233 Y1.4290  
G01 X-0.8227 Y1.4310  
G01 X-0.8222 Y1.4329  
G01 X-0.8221 Y1.4332  
G01 X-0.8221 Y1.4334  
G01 X-0.8211 Y1.4353  
G01 X-0.8203 Y1.4371  
G01 X-0.8201 Y1.4373  
G01 X-0.7968 Y1.4840  
G01 X-0.7966 Y1.4846  
G01 X-0.7957 Y1.4861  
G01 X-0.7950 Y1.4876  
G01 X-0.7946 Y1.4881  
G01 X-0.7943 Y1.4886  
G01 X-0.7932 Y1.4899  
G01 X-0.7921 Y1.4912  
G01 X-0.7917 Y1.4917  
G01 X-0.7912 Y1.4921  
G01 X-0.7899 Y1.4932  
G01 X-0.7886 Y1.4943  
G01 X-0.7881 Y1.4946  
G01 X-0.7876 Y1.4950  
G01 X-0.7861 Y1.4957  
G01 X-0.7846 Y1.4966  
G01 X-0.7845 Y1.4966  
G01 X-0.7845 Y1.5033  
G01 X-0.7832 Y1.5098  
G01 X-0.7807 Y1.5159  
G01 X-0.7770 Y1.5214  
G01 X-0.7724 Y1.5260  
G01 X-0.7669 Y1.5297  
G01 X-0.7608 Y1.5322  
G01 X-0.7543 Y1.5335  
G01 X-0.6957 Y1.5335  
G01 X-0.6892 Y1.5322  
G01 X-0.6831 Y1.5297  
G01 X-0.6776 Y1.5260  
G01 X-0.6730 Y1.5214  
G01 X-0.6693 Y1.5159  
G01 X-0.6668 Y1.5098  
G01 X-0.6655 Y1.5033  
G01 X-0.6655 Y1.4967  
G01 X-0.6668 Y1.4902  
G01 X-0.6693 Y1.4841  
G01 X-0.6730 Y1.4786  
G01 X-0.6776 Y1.4740  
G01 X-0.6831 Y1.4703  
G01 X-0.6892 Y1.4678  
G01 X-0.6957 Y1.4665  
G01 X-0.7395 Y1.4665  
G01 X-0.7575 Y1.4575  
G01 X-0.7778 Y1.4168  
G01 X-0.7942 Y1.3514  
G01 X-0.7935 Y1.3508  
G01 X-0.7891 Y1.3442  
G01 X-0.7861 Y1.3368  
G01 X-0.7845 Y1.3290  
G01 X-0.7845 Y1.3210  
G01 X-0.7861 Y1.3132  
G01 X-0.7891 Y1.3058  
G01 X-0.7935 Y1.2992  
G00 Z0.0500  
G00 X-0.8935 Y1.2992  
G01 Z-0.0040 F10    
G01 X-0.8992 Y1.2935  F20    
G01 X-0.9058 Y1.2891  
G01 X-0.9132 Y1.2861  
G01 X-0.9188 Y1.2849  
G01 X-0.9536 Y1.2152  
G01 X-0.9542 Y1.2139  
G01 X-0.9546 Y1.2132  
G01 X-0.9550 Y1.2124  
G01 X-0.9559 Y1.2113  
G01 X-0.9567 Y1.2100  
G01 X-0.9573 Y1.2094  
G01 X-0.9579 Y1.2088  
G01 X-0.9590 Y1.2078  
G01 X-0.9600 Y1.2067  
G01 X-0.9607 Y1.2063  
G01 X-0.9614 Y1.2057  
G01 X-0.9626 Y1.2050  
G01 X-0.9639 Y1.2042  
G01 X-0.9646 Y1.2039  
G01 X-0.9654 Y1.2034  
G01 X-0.9668 Y1.2030  
G01 X-0.9681 Y1.2024  
G01 X-0.9690 Y1.2022  
G01 X-0.9698 Y1.2020  
G01 X-0.9712 Y1.2018  
G01 X-0.9727 Y1.2015  
G01 X-0.9735 Y1.2015  
G01 X-0.9744 Y1.2014  
G01 X-0.9758 Y1.2015  
G01 X-1.1235 Y1.2015  
G01 X-1.1244 Y1.2014  
G01 X-1.1258 Y1.2015  
G01 X-1.1273 Y1.2015  
G01 X-1.1281 Y1.2017  
G01 X-1.1290 Y1.2017  
G01 X-1.1304 Y1.2021  
G01 X-1.1319 Y1.2024  
G01 X-1.1326 Y1.2027  
G01 X-1.1334 Y1.2029  
G01 X-1.1348 Y1.2036  
G01 X-1.1361 Y1.2042  
G01 X-1.1368 Y1.2046  
G01 X-1.1609 Y1.2167  
G01 X-1.1611 Y1.2165  
G01 X-1.1889 Y1.2165  
G01 X-1.2085 Y1.2361  
G01 X-1.2085 Y1.2639  
G01 X-1.1889 Y1.2835  
G01 X-1.1611 Y1.2835  
G01 X-1.1415 Y1.2639  
G01 X-1.1415 Y1.2595  
G01 X-1.1195 Y1.2485  
G01 X-0.9895 Y1.2485  
G01 X-0.9609 Y1.3058  
G01 X-0.9639 Y1.3132  
G01 X-0.9655 Y1.3210  
G01 X-0.9655 Y1.3290  
G01 X-0.9639 Y1.3368  
G01 X-0.9609 Y1.3442  
G01 X-0.9565 Y1.3508  
G01 X-0.9508 Y1.3565  
G01 X-0.9485 Y1.3580  
G01 X-0.9485 Y1.4011  
G01 X-0.9585 Y1.4111  
G01 X-0.9585 Y1.4389  
G01 X-0.9389 Y1.4585  
G01 X-0.9111 Y1.4585  
G01 X-0.8915 Y1.4389  
G01 X-0.8915 Y1.4111  
G01 X-0.9015 Y1.4011  
G01 X-0.9015 Y1.3580  
G01 X-0.8992 Y1.3565  
G01 X-0.8935 Y1.3508  
G01 X-0.8891 Y1.3442  
G01 X-0.8861 Y1.3368  
G01 X-0.8845 Y1.3290  
G01 X-0.8845 Y1.3210  
G01 X-0.8861 Y1.3132  
G01 X-0.8891 Y1.3058  
G01 X-0.8935 Y1.2992  
G00 Z0.0500  
G00 X-1.2165 Y1.2861  
G01 Z-0.0040 F10    
G01 X-1.2361 Y1.2665  F20    
G01 X-1.2639 Y1.2665  
G01 X-1.2835 Y1.2861  
G01 X-1.2835 Y1.2905  
G01 X-1.3104 Y1.3039  
G01 X-1.3124 Y1.3049  
G01 X-1.3126 Y1.3050  
G01 X-1.3143 Y1.3064  
G01 X-1.3161 Y1.3077  
G01 X-1.3162 Y1.3079  
G01 X-1.3177 Y1.3095  
G01 X-1.3192 Y1.3112  
G01 X-1.3193 Y1.3114  
G01 X-1.3204 Y1.3133  
G01 X-1.3215 Y1.3152  
G01 X-1.3216 Y1.3154  
G01 X-1.3223 Y1.3175  
G01 X-1.3230 Y1.3196  
G01 X-1.3230 Y1.3198  
G01 X-1.3233 Y1.3220  
G01 X-1.3236 Y1.3242  
G01 X-1.3236 Y1.3244  
G01 X-1.3234 Y1.3266  
G01 X-1.3233 Y1.3288  
G01 X-1.3233 Y1.3290  
G01 X-1.3227 Y1.3311  
G01 X-1.2233 Y1.7039  
G01 X-1.2227 Y1.7061  
G01 X-1.2221 Y1.7083  
G01 X-1.2221 Y1.7084  
G01 X-1.2211 Y1.7104  
G01 X-1.2201 Y1.7124  
G01 X-1.1835 Y1.7855  
G01 X-1.1835 Y1.8293  
G01 X-1.1822 Y1.8358  
G01 X-1.1797 Y1.8419  
G01 X-1.1760 Y1.8474  
G01 X-1.1714 Y1.8520  
G01 X-1.1659 Y1.8557  
G01 X-1.1598 Y1.8582  
G01 X-1.1565 Y1.8589  
G01 X-1.0799 Y2.1076  
G01 X-1.0835 Y2.1111  
G01 X-1.0835 Y2.1389  
G01 X-1.0639 Y2.1585  
G01 X-1.0361 Y2.1585  
G01 X-1.0165 Y2.1389  
G01 X-1.0165 Y2.1111  
G01 X-1.0355 Y2.0921  
G01 X-1.1165 Y1.8290  
G01 X-1.1165 Y1.7707  
G01 X-1.1178 Y1.7642  
G01 X-1.1203 Y1.7581  
G01 X-1.1240 Y1.7526  
G01 X-1.1286 Y1.7480  
G01 X-1.1341 Y1.7443  
G01 X-1.1402 Y1.7418  
G01 X-1.1467 Y1.7405  
G01 X-1.1533 Y1.7405  
G01 X-1.1535 Y1.7405  
G01 X-1.1779 Y1.6916  
G01 X-1.2724 Y1.3375  
G01 X-1.2641 Y1.3333  
G01 X-1.2639 Y1.3335  
G01 X-1.2361 Y1.3335  
G01 X-1.2165 Y1.3139  
G01 X-1.2165 Y1.2861  
G00 Z0.0500  
G00 X-0.4724 Y1.4740  
G01 Z-0.0040 F10    
G01 X-0.4770 Y1.4786  F20    
G01 X-0.4807 Y1.4841  
G01 X-0.4832 Y1.4902  
G01 X-0.4845 Y1.4967  
G01 X-0.4845 Y1.5033  
G01 X-0.4832 Y1.5098  
G01 X-0.4807 Y1.5159  
G01 X-0.4770 Y1.5214  
G01 X-0.4724 Y1.5260  
G01 X-0.4669 Y1.5297  
G01 X-0.4608 Y1.5322  
G01 X-0.4543 Y1.5335  
G01 X-0.3957 Y1.5335  
G01 X-0.3892 Y1.5322  
G01 X-0.3831 Y1.5297  
G01 X-0.3776 Y1.5260  
G01 X-0.3751 Y1.5235  
G01 X-0.2472 Y1.5235  
G01 X-0.1955 Y1.5252  
G01 X-0.1932 Y1.5296  
G01 X-0.1885 Y1.5360  
G01 X-0.1829 Y1.5417  
G01 X-0.1765 Y1.5463  
G01 X-0.1735 Y1.5479  
G01 X-0.1735 Y1.6553  
G01 X-0.1765 Y1.6568  
G01 X-0.1829 Y1.6615  
G01 X-0.1885 Y1.6671  
G01 X-0.1932 Y1.6735  
G01 X-0.1968 Y1.6806  
G01 X-0.1993 Y1.6882  
G01 X-0.2005 Y1.6960  
G01 X-0.2005 Y1.7040  
G01 X-0.1993 Y1.7118  
G01 X-0.1968 Y1.7194  
G01 X-0.1932 Y1.7265  
G01 X-0.1885 Y1.7329  
G01 X-0.1829 Y1.7385  
G01 X-0.1765 Y1.7432  
G01 X-0.1694 Y1.7468  
G01 X-0.1618 Y1.7493  
G01 X-0.1540 Y1.7505  
G01 X-0.1460 Y1.7505  
G01 X-0.1382 Y1.7493  
G01 X-0.1306 Y1.7468  
G01 X-0.1235 Y1.7432  
G01 X-0.1171 Y1.7385  
G01 X-0.1115 Y1.7329  
G01 X-0.1068 Y1.7265  
G01 X-0.1032 Y1.7194  
G01 X-0.1007 Y1.7118  
G01 X-0.0995 Y1.7040  
G01 X-0.0995 Y1.6960  
G01 X-0.1007 Y1.6882  
G01 X-0.1032 Y1.6806  
G01 X-0.1068 Y1.6735  
G01 X-0.1115 Y1.6671  
G01 X-0.1171 Y1.6615  
G01 X-0.1235 Y1.6568  
G01 X-0.1265 Y1.6553  
G01 X-0.1265 Y1.5479  
G01 X-0.1235 Y1.5463  
G01 X-0.1171 Y1.5417  
G01 X-0.1115 Y1.5360  
G01 X-0.1068 Y1.5296  
G01 X-0.1032 Y1.5225  
G01 X-0.1007 Y1.5150  
G01 X-0.0995 Y1.5071  
G01 X-0.0995 Y1.4992  
G01 X-0.1007 Y1.4913  
G01 X-0.1032 Y1.4838  
G01 X-0.1068 Y1.4767  
G01 X-0.1115 Y1.4703  
G01 X-0.1171 Y1.4646  
G01 X-0.1235 Y1.4600  
G01 X-0.1306 Y1.4563  
G01 X-0.1382 Y1.4539  
G01 X-0.1460 Y1.4526  
G01 X-0.1540 Y1.4526  
G01 X-0.1618 Y1.4539  
G01 X-0.1694 Y1.4563  
G01 X-0.1765 Y1.4600  
G01 X-0.1829 Y1.4646  
G01 X-0.1885 Y1.4703  
G01 X-0.1932 Y1.4767  
G01 X-0.1940 Y1.4782  
G01 X-0.2442 Y1.4766  
G01 X-0.2445 Y1.4765  
G01 X-0.2465 Y1.4765  
G01 X-0.2484 Y1.4764  
G01 X-0.2488 Y1.4765  
G01 X-0.3751 Y1.4765  
G01 X-0.3776 Y1.4740  
G01 X-0.3831 Y1.4703  
G01 X-0.3892 Y1.4678  
G01 X-0.3957 Y1.4665  
G01 X-0.4543 Y1.4665  
G01 X-0.4608 Y1.4678  
G01 X-0.4669 Y1.4703  
G01 X-0.4724 Y1.4740  
G00 Z0.0500  
G00 X-0.4770 Y2.0346  
G01 Z-0.0040 F10    
G01 X-0.5860 Y2.0346  F20    
G01 X-0.5950 Y2.0360  
G01 X-0.6036 Y2.0388  
G01 X-0.6116 Y2.0429  
G01 X-0.6190 Y2.0483  
G01 X-0.6254 Y2.0547  
G01 X-0.6307 Y2.0620  
G01 X-0.6348 Y2.0701  
G01 X-0.6376 Y2.0787  
G01 X-0.6390 Y2.0876  
G01 X-0.6390 Y2.0967  
G01 X-0.6376 Y2.1056  
G01 X-0.6348 Y2.1142  
G01 X-0.6307 Y2.1223  
G01 X-0.6254 Y2.1296  
G01 X-0.6190 Y2.1360  
G01 X-0.6116 Y2.1413  
G01 X-0.6036 Y2.1454  
G01 X-0.5950 Y2.1482  
G01 X-0.5860 Y2.1496  
G01 X-0.4770 Y2.1496  
G01 X-0.4680 Y2.1482  
G01 X-0.4594 Y2.1454  
G01 X-0.4514 Y2.1413  
G01 X-0.4459 Y2.1373  
G01 X-0.3235 Y2.2597  
G01 X-0.3235 Y2.7403  
G01 X-0.5097 Y2.9265  
G01 X-0.6903 Y2.9265  
G01 X-0.7555 Y2.8613  
G01 X-0.7555 Y2.8316  
G01 X-0.7765 Y2.8106  
G01 X-0.7765 Y2.7894  
G01 X-0.7555 Y2.7684  
G01 X-0.7555 Y2.7316  
G01 X-0.7816 Y2.7055  
G01 X-0.8184 Y2.7055  
G01 X-0.8445 Y2.7316  
G01 X-0.8445 Y2.7684  
G01 X-0.8235 Y2.7894  
G01 X-0.8235 Y2.8106  
G01 X-0.8445 Y2.8316  
G01 X-0.8445 Y2.8684  
G01 X-0.8184 Y2.8945  
G01 X-0.7887 Y2.8945  
G01 X-0.7150 Y2.9683  
G01 X-0.7111 Y2.9708  
G01 X-0.7069 Y2.9726  
G01 X-0.7023 Y2.9735  
G01 X-0.4977 Y2.9735  
G01 X-0.4931 Y2.9726  
G01 X-0.4889 Y2.9708  
G01 X-0.4850 Y2.9683  
G01 X-0.2817 Y2.7650  
G01 X-0.2792 Y2.7611  
G01 X-0.2774 Y2.7569  
G01 X-0.2765 Y2.7523  
G01 X-0.2765 Y2.2477  
G01 X-0.2774 Y2.2431  
G01 X-0.2792 Y2.2389  
G01 X-0.2817 Y2.2350  
G01 X-0.2850 Y2.2317  
G01 X-0.4240 Y2.0928  
G01 X-0.4240 Y2.0876  
G01 X-0.4254 Y2.0787  
G01 X-0.4282 Y2.0701  
G01 X-0.4323 Y2.0620  
G01 X-0.4376 Y2.0547  
G01 X-0.4440 Y2.0483  
G01 X-0.4514 Y2.0429  
G01 X-0.4594 Y2.0388  
G01 X-0.4680 Y2.0360  
G01 X-0.4770 Y2.0346  
G00 Z0.0500  
G00 X-0.5743 Y2.2094  
G01 Z-0.0040 F10    
G01 X-0.5807 Y2.2030  F20    
G01 X-0.5880 Y2.1977  
G01 X-0.5960 Y2.1936  
G01 X-0.6046 Y2.1908  
G01 X-0.6136 Y2.1894  
G01 X-0.6226 Y2.1894  
G01 X-0.6316 Y2.1908  
G01 X-0.6402 Y2.1936  
G01 X-0.6482 Y2.1977  
G01 X-0.6556 Y2.2030  
G01 X-0.6620 Y2.2094  
G01 X-0.6673 Y2.2167  
G01 X-0.6714 Y2.2248  
G01 X-0.6742 Y2.2334  
G01 X-0.6756 Y2.2423  
G01 X-0.6756 Y2.3388  
G01 X-0.7171 Y2.3665  
G01 X-0.7389 Y2.3665  
G01 X-0.7585 Y2.3861  
G01 X-0.7585 Y2.3932  
G01 X-0.9157 Y2.4915  
G01 X-0.9389 Y2.4915  
G01 X-0.9489 Y2.5015  
G01 X-1.0261 Y2.5015  
G01 X-1.0361 Y2.4915  
G01 X-1.0639 Y2.4915  
G01 X-1.0835 Y2.5111  
G01 X-1.0835 Y2.5389  
G01 X-1.0639 Y2.5585  
G01 X-1.0361 Y2.5585  
G01 X-1.0261 Y2.5485  
G01 X-0.9489 Y2.5485  
G01 X-0.9389 Y2.5585  
G01 X-0.9111 Y2.5585  
G01 X-0.8915 Y2.5389  
G01 X-0.8915 Y2.5318  
G01 X-0.7343 Y2.4335  
G01 X-0.7111 Y2.4335  
G01 X-0.6915 Y2.4139  
G01 X-0.6915 Y2.4059  
G01 X-0.6608 Y2.3855  
G01 X-0.6556 Y2.3907  
G01 X-0.6482 Y2.3960  
G01 X-0.6402 Y2.4001  
G01 X-0.6316 Y2.4029  
G01 X-0.6226 Y2.4044  
G01 X-0.6136 Y2.4044  
G01 X-0.6046 Y2.4029  
G01 X-0.5960 Y2.4001  
G01 X-0.5880 Y2.3960  
G01 X-0.5807 Y2.3907  
G01 X-0.5743 Y2.3843  
G01 X-0.5689 Y2.3770  
G01 X-0.5648 Y2.3689  
G01 X-0.5620 Y2.3603  
G01 X-0.5606 Y2.3514  
G01 X-0.5606 Y2.2423  
G01 X-0.5620 Y2.2334  
G01 X-0.5648 Y2.2248  
G01 X-0.5689 Y2.2167  
G01 X-0.5743 Y2.2094  
G00 Z0.0500  
G00 X-0.5860 Y2.5346  
G01 Z-0.0040 F10    
G01 X-0.5950 Y2.5360  F20    
G01 X-0.6036 Y2.5388  
G01 X-0.6116 Y2.5429  
G01 X-0.6190 Y2.5483  
G01 X-0.6254 Y2.5547  
G01 X-0.6307 Y2.5620  
G01 X-0.6348 Y2.5701  
G01 X-0.6376 Y2.5787  
G01 X-0.6390 Y2.5876  
G01 X-0.6390 Y2.5967  
G01 X-0.6376 Y2.6056  
G01 X-0.6348 Y2.6142  
G01 X-0.6307 Y2.6223  
G01 X-0.6254 Y2.6296  
G01 X-0.6190 Y2.6360  
G01 X-0.6116 Y2.6413  
G01 X-0.6036 Y2.6454  
G01 X-0.5950 Y2.6482  
G01 X-0.5860 Y2.6496  
G01 X-0.4770 Y2.6496  
