(/Applications/pcbgcode.repo/pcb-gcode.ulp)
(Copyright 2005 - 2012 by John Johnson)
(See readme.txt for licensing terms.)
(This file generated from the board:)
(.../TH_simple_AD-R-/eagle/th_simple_ad.brd)
(Current profile is .../pcbgcode.repo/profiles/mach.pp  )
(This file generated 1/1/16 2:25 PM)
(Settings from pcb-machine.h)
(spindle on time = 0.0000)
(spindle speed = 20000.0000)
(tool change at 0.0000  0.0000  3.0000  )
(feed rate xy = F0     )
(feed rate z  = F20    )
(Z Axis Settings)
(  High     Up        Down     Drill)
(1.0000  	0.0500  	-0.0040 	-0.0730 )
(Settings from pcb-defaults.h)
(isolate min = 0.0010)
(isolate max = 0.0150)
(isolate step = 0.0015)
(Generated bottom outlines, bottom drill, )
(Unit of measure: inch)
( Tool|       Size       |  Min Sub |  Max Sub |   Count )
( T01 | 0.800mm 0.0315in | 0.0000in | 0.0000in |       0 )
( T02 | 0.813mm 0.0320in | 0.0000in | 0.0000in |       0 )
( T03 | 1.016mm 0.0400in | 0.0000in | 0.0000in |       0 )
( T04 | 1.200mm 0.0472in | 0.0000in | 0.0000in |       0 )
( T05 | 1.300mm 0.0512in | 0.0000in | 0.0000in |       0 )
(Inch Mode)
G20
(Absolute Coordinates)
G90
S20000
G00 Z1.0000  
G00 X0.0000  Y0.0000  
M03
G04 P0.000000
M05
G00 Z3.0000  
M06 T01  ; 0.0315  
G01 Z0.0000  F20    
M06 
G00 Z0.0500  
M03
G04 P0.000000
G82 X-1.2000 Y2.2266  Z-0.0730 F20    R0.0500  P0.010000
G82 X-1.2000 Y2.4234  
G82 X-1.4250 Y2.4234  
G82 X-1.4250 Y2.2266  
M05
G00 Z3.0000  
G00 X0.0000  Y0.0000  
M06 T02  ; 0.0320  
G01 Z0.0000  F20    
M06 
G00 Z0.0500  
M03
G04 P0.000000
G82 X-0.4250 Y0.6500  Z-0.0730 F20    R0.0500  P0.010000
G82 X-0.5000 Y0.9250  
G82 X-0.4250 Y1.0500  
G82 X-0.7250 Y1.0250  
G82 X-0.8250 Y1.0250  
G82 X-0.9250 Y1.0250  
G82 X-1.0250 Y1.0250  
G82 X-0.9750 Y0.9000  
G82 X-1.0750 Y0.9000  
G82 X-1.1750 Y0.9000  
G82 X-1.2750 Y0.9000  
G82 X-1.2750 Y0.6000  
G82 X-1.1750 Y0.6000  
G82 X-1.0750 Y0.6000  
G82 X-0.9750 Y0.6000  
G82 X-0.7750 Y0.7750  
G82 X-0.7000 Y0.9250  
G82 X-0.7250 Y1.3250  
G82 X-0.8250 Y1.3250  
G82 X-0.9250 Y1.3250  
G82 X-1.0250 Y1.3250  
G82 X-0.9250 Y1.4250  
G82 X-0.7250 Y1.5000  
G82 X-0.5750 Y1.6750  
G82 X-0.4750 Y1.6750  
G82 X-0.6000 Y1.8000  
G82 X-0.8000 Y1.8000  
G82 X-0.9250 Y1.8250  
G82 X-0.9500 Y1.9750  
G82 X-0.8500 Y1.9750  
G82 X-0.9250 Y2.1250  
G82 X-1.0500 Y2.1250  
G82 X-1.3500 Y2.0000  
G82 X-1.4500 Y2.0000  
G82 X-1.1500 Y1.8000  
G82 X-1.1500 Y1.5000  
G82 X-1.1750 Y1.3500  
G82 X-1.2500 Y1.3000  
G82 X-1.1750 Y1.2500  
G82 X-0.4250 Y1.5000  
G82 X-0.7250 Y2.4000  
G82 X-0.7250 Y2.6000  
G82 X-0.9250 Y2.5250  
G82 X-1.0500 Y2.5250  
G82 X-0.7750 Y0.3750  
M05
G00 Z3.0000  
G00 X0.0000  Y0.0000  
M06 T03  ; 0.0400  
G01 Z0.0000  F20    
M06 
G00 Z0.0500  
M03
G04 P0.000000
G82 X-0.8000 Y2.7500  Z-0.0730 F20    R0.0500  P0.010000
G82 X-0.9000 Y2.7500  
G82 X-1.0000 Y2.7500  
G82 X-1.0000 Y2.8500  
G82 X-0.9000 Y2.8500  
G82 X-0.8000 Y2.8500  
G82 X-1.1000 Y2.8500  
G82 X-1.2000 Y2.8500  
G82 X-1.2000 Y2.7500  
G82 X-1.1000 Y2.7500  
G82 X-1.3000 Y2.7500  
G82 X-1.4000 Y2.7500  
G82 X-1.4000 Y2.8500  
G82 X-1.3000 Y2.8500  
G82 X-1.5000 Y2.8500  
G82 X-1.5000 Y2.7500  
M05
G00 Z3.0000  
G00 X0.0000  Y0.0000  
M06 T04  ; 0.0472  
G01 Z0.0000  F20    
M06 
G00 Z0.0500  
M03
G04 P0.000000
G82 X-0.1500 Y0.8031  Z-0.0730 F20    R0.0500  P0.010000
G82 X-0.1500 Y1.0000  
G82 X-0.1500 Y1.1969  
G82 X-0.1500 Y1.5031  
G82 X-0.1500 Y1.7000  
G82 X-0.1500 Y1.8969  
M05
G00 Z3.0000  
G00 X0.0000  Y0.0000  
M06 T05  ; 0.0512  
G01 Z0.0000  F20    
M06 
G00 Z0.0500  
M03
G04 P0.000000
G82 X-0.0980 Y0.3630  Z-0.0730 F20    R0.0500  P0.010000
G82 X-0.0984 Y0.3969  
G82 X-0.0980 Y0.4300  
G82 X-0.4980 Y0.1920  
G82 X-0.5315 Y0.1921  
G82 X-0.5650 Y0.1920  
G82 X-0.6180 Y0.3640  
G82 X-0.6181 Y0.3969  
G82 X-0.6180 Y0.4300  
G82 X-0.5650 Y2.0920  
G82 X-0.5315 Y2.0921  
G82 X-0.4980 Y2.0920  
G82 X-0.6180 Y2.2640  
G82 X-0.6181 Y2.2969  
G82 X-0.6180 Y2.3300  
G82 X-0.5650 Y2.5920  
G82 X-0.5315 Y2.5921  
G82 X-0.4980 Y2.5920  
G82 X-0.6180 Y2.7640  
G82 X-0.6181 Y2.7969  
G82 X-0.6180 Y2.8300  
G82 X-0.0980 Y2.8300  
G82 X-0.0984 Y2.7969  
G82 X-0.0980 Y2.7630  
G82 X-0.0980 Y2.3300  
G82 X-0.0984 Y2.2969  
G82 X-0.0980 Y2.2630  
T01 
G00 Z1.0000  
M05
M02
